!!!!SEGMENT: pl-cz--iii-669--001-003_scigalski-franciszek--missa-in-b-qui-tollis.krn
!!!cenid: 18xx:1108
!!!COM: Ścigalski, Franciszek
!!!COM-rismid: pe30002948
!!!CDT: 1782/01/29-1846/09/27
!!!CNT: Polish
!!!OPR: Missa in B
!!!OTL: Qui tollis
!!!OMV: 003
!!!PDT:
!!!AGN: Sacred; Mass
!!!SMS-siglum: PL-CZ
!!!SMS-shelfmark: III-669
!!!SMS-shelfwork: 001-003 M
!!!SMS-variant:
!!!SMS-altvar:
!!!NIFC-rismid: 300001314
!!!URL-scan: http://repozytorium.nifc.pl/skany/pl-cz-nut--iii-669
!!!ONB-nifc: UWAGA: części Mszy: Kyrie, Gloria, Qui tollis, Quoniam, Credo, Et incarnatus, Et resurrexit, Sanctus, Benedictus, Agnus Dei, Dona nobis
!!!key: E-
**kern	**fba	**dynam	**kern	**dynam	**kern	**dynam	**kern	**dynam	**kern	**text	**kern	**text	**kern	**text	**kern	**text	**kern	**kern	**kern	**kern	**kern	**kern	**dynam	**kern	**dynam	**kern
*	*	*	*group4	*	*group4	*	*group4	*	*group3	*	*group3	*	*group3	*	*group3	*	*	*group2	*group2	*group2	*group1	*group1	*	*group1	*	*group1
*part16	*	*part16	*part15	*part15	*part14	*part14	*part13	*part13	*part12	*part12	*part11	*part11	*part10	*part10	*part9	*part9	*part8	*part7	*part6	*part5	*part4	*part3	*part3	*part2	*part2	*part1
*staff16	*	*	*staff15	*	*staff14	*	*staff13	*	*staff12	*staff12	*staff11	*staff11	*staff10	*staff10	*staff9	*staff9	*staff8	*staff7	*staff6	*staff5	*staff4	*staff3	*	*staff2	*	*staff1
*I"Organo	*	*	*I"Alto Viola	*	*I"Violino 2.do	*	*I"Violino. Primo.	*	*I"Basso!	*	*I"Tenore	*	*I"Alto	*	*I"Canto	*	*I"Tympano. in B.F.	*I"Claryino Princypalo	*I"Corno Sekundo in F	*I"Cornu Prymo in F	*I"Fagotto Oblgato	*I"Clarinetto 2do. in B	*	*I"Clarinetto 1mo in B	*	*I"Flauto Obligato.
*I'org	*	*	*I'a-vla	*	*I'vl 2	*	*I'vl 1	*	*I'B	*	*I'T	*	*I'A	*	*I'S	*	*I'timp	*I'clno princ	*I'cor 2 in F	*I'cor 1 in F	*I'fag	*I'cl 2 in B|b	*	*I'cl 1 in B|b	*	*I'fl
*Iorgan	*	*	*Iviola	*	*Ivioln	*	*Ivioln	*	*Ibass	*	*Itenor	*	*Ialto	*	*Isoprn	*	*Itimpa	*Itromp	*Icor	*Icor	*Ifagot	*Iclara	*	*Iclara	*	*Iflt
*ICklav	*	*	*ICstr	*	*ICstr	*	*ICstr	*	*ICvox	*	*ICvox	*	*ICvox	*	*ICvox	*	*ICidio	*ICbras	*ICbras	*ICbras	*ICww	*ICww	*	*ICww	*	*ICww
*IGcont	*	*	*	*	*	*	*	*	*IGcoro	*	*IGcoro	*	*IGcoro	*	*IGcoro	*	*	*	*	*	*	*	*	*	*	*
*clefF4	*	*	*clefC3	*	*clefG2	*	*clefG2	*	*clefF4	*	*clefC4	*	*clefC3	*	*clefC1	*	*clefF4	*clefG2	*clefG2	*clefG2	*clefF4	*clefG2	*	*clefG2	*	*clefG2
*	*	*	*	*	*	*	*	*	*	*	*	*	*	*	*	*	*ITrd1c2	*	*ITrd-2c-3	*ITrd-2c-3	*	*ITrd1c2	*	*ITrd1c2	*	*
*k[b-e-a-]	*	*	*k[e-b-a-]	*	*k[b-e-a-]	*	*k[b-e-a-]	*	*k[b-e-a-]	*	*k[b-e-a-]	*	*k[b-e-a-]	*	*k[b-e-a-]	*	*k[b-e-a-]	*k[b-e-a-]	*k[b-e-a-]	*k[b-e-a-]	*k[e-b-a-]	*k[b-e-a-]	*	*k[b-e-a-]	*	*k[b-e-a-]
*E-:	*	*	*E-:	*	*E-:	*	*E-:	*	*E-:	*	*E-:	*	*E-:	*	*E-:	*	*E-:	*E-:	*	*	*E-:	*E-:	*	*E-:	*	*E-:
*M3/4	*	*	*M3/4	*	*M3/4	*	*M3/4	*	*M3/4	*	*M3/4	*	*M3/4	*	*M3/4	*	*M3/4	*M3/4	*M3/4	*M3/4	*M3/4	*M3/4	*	*M3/4	*	*M3/4
!	!	!	!	!	!	!	!	!	!LO:TX:t=P:problem:znaki BB- E- A-	!	!	!	!	!	!	!	!LO:TX:a:t=Qui Tollis Tacet	!LO:TX:a:t=Quitolis Tacet	!LO:TX:a:i:t=in Es	!LO:TX:a:i:t=in Es	!	!	!	!	!	!
!LO:TX:a:rj:t=Adagio	!	!	!LO:TX:a:rj:t=Adagio.	!	!LO:TX:a:rj:t=Adagio	!	!LO:TX:a:rj:t=Adagio.	!	!LO:TX:a:rj:t=Adagio	!	!LO:TX:a:rj:t=Adagio.	!	!LO:TX:a:rj:t=Adagio	!	!LO:TX:a:rj:t=Adagio	!	!	!	!LO:TX:a:rj:t=Adagio	!LO:TX:a:rj:t=Adagio	!	!LO:TX:a:t=Adagio.	!	!LO:TX:a:rj:t=Adagio.	!	!LO:TX:a:rj:t=Adagio.
4r	.	.	4r	.	4r	.	4B-/	.	4r	.	4r	.	4ryy	.	4ryy	.	4ryy	4ryy	4r	4r	4r	4ryy	.	4r	.	4r
=1	=1	=1	=1	=1	=1	=1	=1	=1	=1	=1	=1	=1	=1	=1	=1	=1	=1	=1	=1	=1	=1	=1	=1	=1	=1	=1
*2\right	*	*	*2\right	*	*	*	*	*	*	*	*	*	*	*	*	*	*	*	*	*	*	*	*	*	*	*
*tremolo	*	*	*tremolo	*below	*	*	*	*	*	*	*	*	*	*	*	*	*	*	*	*	*	*	*	*	*	*
!	!	!	!	!	!	!	!	!	!	!	!	!	!LO:TX:b:t=29.	!	!	!	!	!	!	!	!	!	!	!	!	!
!LO:TX:a:t=......	!	!	!LO:TX:a:t=||||||	!LO:DY:rj:t=p&colon;	!	!	!	!	!LO:TX:a:t=7.	!	!LO:TX:a:t=29.	!	!LO:TX:a:t=29.	!	!LO:TX:a:t=29.	!	!	!	!LO:TX:a:t=4	!	!LO:TX:a:t=4.	!LO:TX:a:t=4	!	!LO:TX:a:t=4	!	!LO:TX:a:t=29.
8E-'\L	1	.	8e-\L|	p	4G/	.	4e-/	.	0.r	.	2.r	.	2.r	.	2.r	.	2.ryy	2.ryy	0.r	0.r	0.r	0.r	.	0.r	.	2.r
8E-'\	.	.	8e-\|	.	.	.	.	.	.	.	.	.	.	.	.	.	.	.	.	.	.	.	.	.	.	.
8E-'\	3	.	8e-\|	.	4d/	.	4f/	.	.	.	.	.	.	.	.	.	.	.	.	.	.	.	.	.	.	.
8E-'\	.	.	8e-\|	.	.	.	.	.	.	.	.	.	.	.	.	.	.	.	.	.	.	.	.	.	.	.
8E-'\	4	.	8e-\|	.	4e-/	.	4g/	.	.	.	.	.	.	.	.	.	.	.	.	.	.	.	.	.	.	.
8E-'\J	.	.	8e-\J|	.	.	.	.	.	.	.	.	.	.	.	.	.	.	.	.	.	.	.	.	.	.	.
=2	=2	=2	=2	=2	=2	=2	=2	=2	=2	=2	=2	=2	=2	=2	=2	=2	=2	=2	=2	=2	=2	=2	=2	=2	=2	=2
!LO:TX:a:t=......	!	!	!	!	!	!	!	!	!	!	!	!	!	!	!	!	!	!	!	!	!	!	!	!	!	!
8E-'\L	5	.	8e-\L	.	16en/LL	.	(16g/LL	.	.	.	2.r	.	2.r	.	2.r	.	2.ryy	2.ryy	.	.	.	.	.	.	.	2.r
.	.	.	.	.	16f/	.	16a-/	.	.	.	.	.	.	.	.	.	.	.	.	.	.	.	.	.	.	.
8E-'\	.	.	8e-\	.	16c#X/	.	16en/)	.	.	.	.	.	.	.	.	.	.	.	.	.	.	.	.	.	.	.
.	.	.	.	.	16d/JJ	.	16f/JJ	.	.	.	.	.	.	.	.	.	.	.	.	.	.	.	.	.	.	.
8E-'\	2	.	8e-\	.	4d/	.	4f/	.	.	.	.	.	.	.	.	.	.	.	.	.	.	.	.	.	.	.
8E-'\	.	.	8e-\	.	.	.	.	.	.	.	.	.	.	.	.	.	.	.	.	.	.	.	.	.	.	.
8E-'\	1	.	8e-\	.	8r	.	8r	.	.	.	.	.	.	.	.	.	.	.	.	.	.	.	.	.	.	.
8E-'\J	.	.	8e-\J	.	8B-/	.	8B-/	.	.	.	.	.	.	.	.	.	.	.	.	.	.	.	.	.	.	.
!	!	!	!	!	!LO:LB:g=original	!	!	!	!	!	!	!	!	!	!	!	!	!	!	!	!	!	!	!	!	!
=3	=3	=3	=3	=3	=3	=3	=3	=3	=3	=3	=3	=3	=3	=3	=3	=3	=3	=3	=3	=3	=3	=3	=3	=3	=3	=3
8E-\L	2	.	8e-\L	.	4d/	.	4f/	.	.	.	2.r	.	2.r	.	2.r	.	2.ryy	2.ryy	.	.	.	.	.	.	.	2.r
8E-\	.	.	8e-\	.	.	.	.	.	.	.	.	.	.	.	.	.	.	.	.	.	.	.	.	.	.	.
8E-\	3	.	8e-\	.	4e-X/	.	4g/	.	.	.	.	.	.	.	.	.	.	.	.	.	.	.	.	.	.	.
8E-\	.	.	8e-\	.	.	.	.	.	.	.	.	.	.	.	.	.	.	.	.	.	.	.	.	.	.	.
8E-\	4	.	8e-\	.	4f/	.	4a-/	.	.	.	.	.	.	.	.	.	.	.	.	.	.	.	.	.	.	.
8E-\J	.	.	8e-\J	.	.	.	.	.	.	.	.	.	.	.	.	.	.	.	.	.	.	.	.	.	.	.
=4	=4	=4	=4	=4	=4	=4	=4	=4	=4	=4	=4	=4	=4	=4	=4	=4	=4	=4	=4	=4	=4	=4	=4	=4	=4	=4
8E-\L	5	.	8e-\L	.	16f#X/LL	.	16an/LL	.	.	.	2.r	.	2.r	.	2.r	.	2.ryy	2.ryy	.	.	.	.	.	.	.	2.r
.	.	.	.	.	16g/	.	16b-/	.	.	.	.	.	.	.	.	.	.	.	.	.	.	.	.	.	.	.
8E-\	.	.	8e-\	.	16d/	.	16f#X/	.	.	.	.	.	.	.	.	.	.	.	.	.	.	.	.	.	.	.
.	.	.	.	.	16e-/JJ	.	16g/JJ	.	.	.	.	.	.	.	.	.	.	.	.	.	.	.	.	.	.	.
8E-\	.	.	8e-\	.	4e-/	.	4g/	.	.	.	.	.	.	.	.	.	.	.	.	.	.	.	.	.	.	.
8E-\	3	.	8e-\	.	.	.	.	.	.	.	.	.	.	.	.	.	.	.	.	.	.	.	.	.	.	.
8E-\	.	.	8e-\	.	4r	.	8r	.	.	.	.	.	.	.	.	.	.	.	.	.	.	.	.	.	.	.
8E-\J	.	.	8e-\J	.	.	.	8g/	.	.	.	.	.	.	.	.	.	.	.	.	.	.	.	.	.	.	.
*Xtremolo	*	*	*	*	*	*	*	*	*	*	*	*	*	*	*	*	*	*	*	*	*	*	*	*	*	*
!	!	!	!	!	!	!	!LO:LB:g=original	!	!	!	!	!	!	!	!	!	!	!	!	!	!	!	!	!	!	!
=5	=5	=5	=5	=5	=5	=5	=5	=5	=5	=5	=5	=5	=5	=5	=5	=5	=5	=5	=5	=5	=5	=5	=5	=5	=5	=5
*	*	*	*	*	*	*	*	*	*	*	*	*	*	*	*	*	*	*	*	*2\right	*2\right	*	*	*2\right	*	*
*	*	*	*	*	*tremolo	*	*	*	*	*	*	*	*	*	*	*	*	*	*	*	*	*	*	*	*	*
!	!	!	!	!	!	!	!	!	!	!	!	!	!	!	!	!	!	!	!	!	!	!	!LO:DY:rj:t=pia	!	!LO:DY:t=pia	!
4E-\	3	.	8E-/L	.	16G/LL	.	16b-/LL	.	1.r	.	2.r	.	2.r	.	2.r	.	2.ryy	2.ryy	2g/	2ee-\	2G\	2g/	p	2ee-\	p	2.r
.	.	.	.	.	16B-/	.	16g/	.	.	.	.	.	.	.	.	.	.	.	.	.	.	.	.	.	.	.
.	.	.	8G/	.	16G/	.	16e-/	.	.	.	.	.	.	.	.	.	.	.	.	.	.	.	.	.	.	.
.	.	.	.	.	16B-/	.	16e-/JJ	.	.	.	.	.	.	.	.	.	.	.	.	.	.	.	.	.	.	.
4G\	8	.	8E-/	.	16G/	.	16e-/LL	.	.	.	.	.	.	.	.	.	.	.	.	.	.	.	.	.	.	.
.	.	.	.	.	16B-/	.	16g/	.	.	.	.	.	.	.	.	.	.	.	.	.	.	.	.	.	.	.
.	.	.	8G/J	.	16G/	.	16B-/	.	.	.	.	.	.	.	.	.	.	.	.	.	.	.	.	.	.	.
.	.	.	.	.	16B-/JJ	.	16B-/JJ	.	.	.	.	.	.	.	.	.	.	.	.	.	.	.	.	.	.	.
*	*	*	*Xtremolo	*	*Xtremolo	*	*	*	*	*	*	*	*	*	*	*	*	*	*	*	*	*	*	*	*	*
4B-\	5	.	8F/L	.	16An/LL	.	16An/LL	.	.	.	.	.	.	.	.	.	.	.	4b-/	4ff\	4A-\	4a-/	.	4ff\	.	.
.	.	.	.	.	16B-/	.	16B-/	.	.	.	.	.	.	.	.	.	.	.	.	.	.	.	.	.	.	.
.	.	.	8D/J	.	16A-/	.	16c/	.	.	.	.	.	.	.	.	.	.	.	.	.	.	.	.	.	.	.
.	.	.	.	.	16B-/JJ	.	16d/JJ	.	.	.	.	.	.	.	.	.	.	.	.	.	.	.	.	.	.	.
*	*	*	*	*	*Xtremolo	*	*	*	*	*	*	*	*	*	*	*	*	*	*	*	*	*	*	*	*	*
=6	=6	=6	=6	=6	=6	=6	=6	=6	=6	=6	=6	=6	=6	=6	=6	=6	=6	=6	=6	=6	=6	=6	=6	=6	=6	=6
4E-\	8	.	4E-/	.	4G/	.	16e-/LL	.	.	.	2.r	.	2.r	.	2.r	.	2.ryy	2.ryy	4g/	4ee-\	4G\	4g/	.	4ee-\	.	2.r
.	.	.	.	.	.	.	16d/	.	.	.	.	.	.	.	.	.	.	.	.	.	.	.	.	.	.	.
.	.	.	.	.	.	.	16f/	.	.	.	.	.	.	.	.	.	.	.	.	.	.	.	.	.	.	.
.	.	.	.	.	.	.	16e-/JJ	.	.	.	.	.	.	.	.	.	.	.	.	.	.	.	.	.	.	.
4E-\	8	.	4E-/	.	16e-/LL	.	16g/LL	.	.	.	.	.	.	.	.	.	.	.	4g/	4ee-\	4G\	4g/	.	4ee-\	.	.
.	.	.	.	.	16d/	.	16f/	.	.	.	.	.	.	.	.	.	.	.	.	.	.	.	.	.	.	.
.	.	.	.	.	16f/	.	16a-X/	.	.	.	.	.	.	.	.	.	.	.	.	.	.	.	.	.	.	.
.	.	.	.	.	16e-/JJ	.	16g/JJ	.	.	.	.	.	.	.	.	.	.	.	.	.	.	.	.	.	.	.
4r	.	.	4r	.	16g/LL	.	16b-\LL	.	.	.	.	.	.	.	.	.	.	.	4r	4r	4r	4r	.	4r	.	.
.	.	.	.	.	16f/	.	16an\	.	.	.	.	.	.	.	.	.	.	.	.	.	.	.	.	.	.	.
.	.	.	.	.	16a-/	.	16cc\	.	.	.	.	.	.	.	.	.	.	.	.	.	.	.	.	.	.	.
.	.	.	.	.	16g/JJ	.	16b-\JJ	.	.	.	.	.	.	.	.	.	.	.	.	.	.	.	.	.	.	.
!	!	!	!LO:LB:g=original	!	!	!	!	!	!	!	!	!	!	!	!	!	!	!	!	!	!	!	!	!	!	!
=7	=7	=7	=7	=7	=7	=7	=7	=7	=7	=7	=7	=7	=7	=7	=7	=7	=7	=7	=7	=7	=7	=7	=7	=7	=7	=7
*	*	*	*tremolo	*	*tremolo	*	*	*	*	*	*	*	*	*	*	*	*	*	*	*	*	*	*	*	*	*
!	!	!	!	!	!	!	!	!	!	!	!	!	!	!	!	!	!	!	!LO:TX:t=P:problem:takty 7-8 zapisane repetycją, wzięte w łuk, z adnotacją "bis"	!	!	!	!	!	!	!
4E-\	8	.	8E-/L	.	16G/LL	.	16b-/LL	.	2.r	.	2.r	.	2.r	.	2.r	.	2.ryy	2.ryy	2g/yy	2ee-\	2G\	2g/	.	2ee-\	.	2.r
.	.	.	.	.	16B-/	.	16g/	.	.	.	.	.	.	.	.	.	.	.	.	.	.	.	.	.	.	.
.	.	.	8G/	.	16G/	.	16e-/	.	.	.	.	.	.	.	.	.	.	.	.	.	.	.	.	.	.	.
.	.	.	.	.	16B-/	.	16e-/JJ	.	.	.	.	.	.	.	.	.	.	.	.	.	.	.	.	.	.	.
4G\	8	.	8E-/	.	16G/	.	16e-/LL	.	.	.	.	.	.	.	.	.	.	.	.	.	.	.	.	.	.	.
.	.	.	.	.	16B-/	.	16g/	.	.	.	.	.	.	.	.	.	.	.	.	.	.	.	.	.	.	.
.	.	.	8G/J	.	16G/	.	16B-/	.	.	.	.	.	.	.	.	.	.	.	.	.	.	.	.	.	.	.
.	.	.	.	.	16B-/JJ	.	16B-/JJ	.	.	.	.	.	.	.	.	.	.	.	.	.	.	.	.	.	.	.
*	*	*	*Xtremolo	*	*Xtremolo	*	*	*	*	*	*	*	*	*	*	*	*	*	*	*	*	*	*	*	*	*
4B-\	8	.	8F/L	.	16An/LL	.	16An/LL	.	.	.	.	.	.	.	.	.	.	.	4b-/yy	4ff\	4A-\	4a-/	.	4ff\	.	.
.	.	.	.	.	16B-/	.	16B-/	.	.	.	.	.	.	.	.	.	.	.	.	.	.	.	.	.	.	.
.	.	.	8D/J	.	16A-/	.	16c/	.	.	.	.	.	.	.	.	.	.	.	.	.	.	.	.	.	.	.
.	.	.	.	.	16B-/JJ	.	16d/JJ	.	.	.	.	.	.	.	.	.	.	.	.	.	.	.	.	.	.	.
!LO:LB:g=original	!	!	!	!	!	!	!LO:LB:g=original	!	!	!	!	!	!	!	!	!	!	!	!	!	!	!	!	!	!	!
=8	=8	=8	=8	=8	=8	=8	=8	=8	=8	=8	=8	=8	=8	=8	=8	=8	=8	=8	=8	=8	=8	=8	=8	=8	=8	=8
!	!	!	!	!	!	!	!	!	!LO:TX:a:i:t=Solo	!	!	!	!	!	!	!	!	!	!	!	!	!	!	!	!	!
4B-\	5	.	4D/	.	4A-/	.	4d/	.	4r	.	2.r	.	2.r	.	2.r	.	2.ryy	2.ryy	4g/yy	4ff\	4A-\	4a-/	.	4ff\	.	2.r
4E-\	8	.	4E-/	.	4G/	.	4e-/	.	4r	.	.	.	.	.	.	.	.	.	4g/yy	4ee-\	4G\	4g/	.	4ee-\	.	.
!	!	!	!	!	!	!	!	!	!	!	!	!	!	!	!	!	!	!	!	!	!LO:N:vis=4	!	!	!	!	!
4r	.	.	4r	.	4r	.	4r	.	8r	.	.	.	.	.	.	.	.	.	4ryy	4r	8r	4r	.	4r	.	.
!	!	!	!	!	!	!	!	!	!	!	!	!	!	!	!	!	!	!	!	!	!LO:N:vis=8	!	!	!	!	!
.	.	.	.	.	.	.	.	.	(16E-\LL	Qvi	.	.	.	.	.	.	.	.	.	.	16E-\LL	.	.	.	.	.
!	!	!	!	!	!	!	!	!	!	!	!	!	!	!	!	!	!	!	!	!	!LO:N:vis=8	!	!	!	!	!
.	.	.	.	.	.	.	.	.	16G\JJ)	.	.	.	.	.	.	.	.	.	.	.	16G\JJ	.	.	.	.	.
!	!	!	!	!	!LO:PB:g=original	!	!	!	!	!	!	!	!	!	!	!	!	!	!LO:LB:g=original	!	!	!	!	!	!	!
=9	=9	=9	=9	=9	=9	=9	=9	=9	=9	=9	=9	=9	=9	=9	=9	=9	=9	=9	=9	=9	=9	=9	=9	=9	=9	=9
!LO:TX:b:i:t=ſolo	!	!	!	!LO:DY:rj:t=p&colon;	!	!	!	!	!	!	!	!	!	!	!	!	!	!	!	!	!	!	!	!	!	!
4E-\	.	.	4e-\	p	4r	.	4r	.	8.B-\L	tol-	2.r	.	2.r	.	2.r	.	2.ryy	2.ryy	4r	4r	8.B-\L	4r	.	4r	.	2.r
.	.	.	.	.	.	.	.	.	16G\Jk	.	.	.	.	.	.	.	.	.	.	.	16G\Jk	.	.	.	.	.
*	*	*	*	*	*	*	*	*below	*	*	*	*	*	*	*	*	*	*	*	*	*	*	*	*	*	*
4E-\	.	.	4E-/	.	8r	.	8r	p	4E-\	-lis	.	.	.	.	.	.	.	.	8r	8r	4E-\	8r	.	8r	.	.
.	.	.	.	.	8e-L 8B-/	.	8gL 8B-/	.	.	.	.	.	.	.	.	.	.	.	8g/L	8ee-\L	.	8g/L	pp	8ee-\L	pp	.
!	!	!	!	!	!	!	!	!	!	!	!	!	!	!	!	!	!	!	!	!	!LO:N:vis=4	!	!	!	!	!
4r	.	.	4r	.	8e- 8B-/	.	8g 8B-/	.	8r	.	.	.	.	.	.	.	.	.	8g/	8ee-\	8r	8g/	.	8ee-\	.	.
*	*	*	*	*	*	*	*	*	*	*ij	*	*	*	*	*	*	*	*	*	*	*	*	*	*	*	*
.	.	.	.	.	8e-J 8B-/	.	8gJ 8B-/	.	8G\	qvi	.	.	.	.	.	.	.	.	8g/J	8ee-\J	8G\	8g/J	.	8ee-\J	.	.
!	!	!	!	!	!	!	!	!	!	!	!	!	!	!	!	!	!	!	!	!LO:LB:g=original	!	!	!	!	!	!
=10	=10	=10	=10	=10	=10	=10	=10	=10	=10	=10	=10	=10	=10	=10	=10	=10	=10	=10	=10	=10	=10	=10	=10	=10	=10	=10
4BB-/	.	.	4b-\	.	4r	.	4r	.	8.B-\L	tol-	2.r	.	2.r	.	2.r	.	2.ryy	2.ryy	4r	4r	8B-\L	4r	.	4r	.	2.r
.	.	.	.	.	.	.	.	.	.	.	.	.	.	.	.	.	.	.	.	.	8G\J	.	.	.	.	.
.	.	.	.	.	.	.	.	.	16A-\Jk	.	.	.	.	.	.	.	.	.	.	.	.	.	.	.	.	.
4BB-/	.	.	4B-/	.	8r	.	8r	.	4F\	-lis	.	.	.	.	.	.	.	.	8r	8r	4F\	8r	.	8r	.	.
*	*	*	*	*	*	*	*	*	*	*Xij	*	*	*	*	*	*	*	*	*	*	*	*	*	*	*	*
.	.	.	.	.	8dL 8B-/	.	8fL 8B-/	.	.	.	.	.	.	.	.	.	.	.	8b-/L	8ff\L	.	8a-\L	.	8ff\L	.	.
!	!	!	!	!	!	!	!	!	!	!	!	!	!	!	!	!	!	!	!	!	!LO:N:vis=4	!	!	!	!	!
4r	.	.	4r	.	8d 8B-/	.	8f 8B-/	.	8r	.	.	.	.	.	.	.	.	.	8b-/	8ff\	8r	8a-\	.	8ff\	.	.
.	.	.	.	.	8dJ 8B-/	.	8fJ 8B-/	.	8A-\	qvi	.	.	.	.	.	.	.	.	8b-/J	8ff\J	8A-\	8a-\J	.	8ff\J	.	.
!	!	!	!	!	!	!	!	!	!LO:PB:g=original	!	!	!	!	!	!	!	!	!	!	!	!LO:LB:g=original	!LO:LB:g=original	!	!LO:LB:g=original	!	!
=11	=11	=11	=11	=11	=11	=11	=11	=11	=11	=11	=11	=11	=11	=11	=11	=11	=11	=11	=11	=11	=11	=11	=11	=11	=11	=11
*	*	*	*tremolo	*	*	*	*	*	*	*	*	*	*	*	*	*	*	*	*	*	*	*	*	*	*	*
4E-\	.	.	8E-/L	.	8G/L	.	8.g/L	.	(8.G\L	tol-	2.r	.	2.r	.	2.r	.	2.ryy	2.ryy	2g/	2ee-\	8.G\L	4b-\	.	8.gg\L	.	2.r
.	.	.	8G/	.	8B-/	.	.	.	.	.	.	.	.	.	.	.	.	.	.	.	.	.	.	.	.	.
.	.	.	.	.	.	.	16e-/Jk	.	16E-\Jk)	.	.	.	.	.	.	.	.	.	.	.	16E-\Jk	.	.	16ee-\Jk	.	.
4GG/	.	.	8E-/	.	8G/	.	8B-/L	.	8BB-/	-lis	.	.	.	.	.	.	.	.	.	.	8BB-/L	8b-\L	.	8b-\L	.	.
.	.	.	8G/J	.	8B-/J	.	8B-/	.	8BB-/	pec-	.	.	.	.	.	.	.	.	.	.	8BB-/	8b-\	.	8b-\	.	.
*	*	*	*Xtremolo	*	*	*	*	*	*	*	*	*	*	*	*	*	*	*	*	*	*	*	*	*	*	*
4BB-/	.	.	8F/L	.	8An/L	.	8c/	.	8C/	-ca-	.	.	.	.	.	.	.	.	4b-/	4ff\	8C/	8a\	.	8cc\	.	.
.	.	.	8D/J	.	8A-X/J	.	8d/J	.	8D/	-ta	.	.	.	.	.	.	.	.	.	.	8D/J	8a-X\J	.	8dd\J	.	.
=12	=12	=12	=12	=12	=12	=12	=12	=12	=12	=12	=12	=12	=12	=12	=12	=12	=12	=12	=12	=12	=12	=12	=12	=12	=12	=12
4EE-/	.	.	4E-/	.	4G/	.	16e-/LL	.	4E-\	mun-	2.r	.	2.r	.	2.r	.	2.ryy	2.ryy	4g/	4ee-\	4E-\	4g/	.	4dd\	.	2.r
.	.	.	.	.	.	.	16d/	.	.	.	.	.	.	.	.	.	.	.	.	.	.	.	.	.	.	.
.	.	.	.	.	.	.	16f/	.	.	.	.	.	.	.	.	.	.	.	.	.	.	.	.	.	.	.
.	.	.	.	.	.	.	16e-/JJ	.	.	.	.	.	.	.	.	.	.	.	.	.	.	.	.	.	.	.
4EE-/	.	.	4E-/	.	16e-/LL	.	16g/LL	.	4E-\	-di	.	.	.	.	.	.	.	.	4g/	4ee-\	4E-\	4g/	.	4ee-\	.	.
.	.	.	.	.	16d/	.	16f/	.	.	.	.	.	.	.	.	.	.	.	.	.	.	.	.	.	.	.
.	.	.	.	.	16f/	.	16a-X/	.	.	.	.	.	.	.	.	.	.	.	.	.	.	.	.	.	.	.
.	.	.	.	.	16e-/JJ	.	16g/JJ	.	.	.	.	.	.	.	.	.	.	.	.	.	.	.	.	.	.	.
4r	.	.	4r	.	16g/LL	.	16b-\LL	.	8r	.	.	.	.	.	.	.	.	.	4r	4r	8r	4r	.	4r	.	.
.	.	.	.	.	16f/	.	16an\	.	.	.	.	.	.	.	.	.	.	.	.	.	.	.	.	.	.	.
.	.	.	.	.	16a-/	.	16cc\	.	(16F\LL	qvi	.	.	.	.	.	.	.	.	.	.	16F\LL	.	.	.	.	.
.	.	.	.	.	16g/JJ	.	16b-\JJ	.	16A-\JJ)	.	.	.	.	.	.	.	.	.	.	.	16A-\JJ	.	.	.	.	.
!	!	!	!	!	!LO:LB:g=original	!	!LO:LB:g=original	!	!	!	!	!	!	!	!	!	!	!	!	!	!	!	!	!	!	!
=13	=13	=13	=13	=13	=13	=13	=13	=13	=13	=13	=13	=13	=13	=13	=13	=13	=13	=13	=13	=13	=13	=13	=13	=13	=13	=13
*	*	*	*tremolo	*	*tremolo	*	*	*	*	*	*	*	*	*	*	*	*	*	*	*	*	*	*	*	*	*
4E-\	.	.	8E-/L	.	8G/L	.	8.g/L	.	8.G\L	tol-	2.r	.	2.r	.	2.r	.	2.ryy	2.ryy	2g/	2ee-\	8.G\L	4b-\	.	8.gg\L	.	2.r
.	.	.	8G	.	8B-/	.	.	.	.	.	.	.	.	.	.	.	.	.	.	.	.	.	.	.	.	.
.	.	.	.	.	.	.	16e-/Jk	.	16E-\Jk	.	.	.	.	.	.	.	.	.	.	.	16E-\Jk	.	.	16ee-\Jk	.	.
4GG/	.	.	8E-/	.	8G/	.	8B-/L	.	8BB-/	-lis	.	.	.	.	.	.	.	.	.	.	8BB-/L	8b-\L	.	8b-\L	.	.
.	.	.	8G/J	.	8B-/J	.	8B-/	.	8BB-/	pec-	.	.	.	.	.	.	.	.	.	.	8BB-/	8b-\	.	8b-\	.	.
*	*	*	*Xtremolo	*	*Xtremolo	*	*	*	*	*	*	*	*	*	*	*	*	*	*	*	*	*	*	*	*	*
4BB-/	.	.	8F/L	.	8An/L	.	8c/	.	8C/	-ca-	.	.	.	.	.	.	.	.	4b-/	4ff\	8C/	8a\	.	8cc\	.	.
.	.	.	8D/J	.	8A-/J	.	8d/J	.	8D/	-ta	.	.	.	.	.	.	.	.	.	.	8D/J	8a-X\J	.	8dd\J	.	.
=14	=14	=14	=14	=14	=14	=14	=14	=14	=14	=14	=14	=14	=14	=14	=14	=14	=14	=14	=14	=14	=14	=14	=14	=14	=14	=14
4BB-/	.	.	4B-/	.	4A-/	.	4d/	.	4D\	mun-	2.r	.	2.r	.	2.r	.	2.ryy	2.ryy	4b-/	4ee-\	4D\	4a-\	.	4dd\	.	2.r
4EE-/	.	.	4B-/	.	4G/	.	4e-/	.	4E-\	-di	.	.	.	.	.	.	.	.	4g/	4ee-\	4E-\	4g\	.	4ee-\	.	.
4r	.	.	4r	.	4r	.	4r	.	4F\	qvi	.	.	.	.	.	.	.	.	4r	4r	4F\	4r	.	4r	.	.
!	!	!	!LO:LB:g=original	!	!	!	!	!	!LO:LB:g=original	!	!	!	!	!	!	!	!	!	!	!	!	!	!	!	!	!
=15	=15	=15	=15	=15	=15	=15	=15	=15	=15	=15	=15	=15	=15	=15	=15	=15	=15	=15	=15	=15	=15	=15	=15	=15	=15	=15
*	*	*	*	*	*	*	*	*	*2\right	*	*	*	*	*	*	*	*	*	*	*	*	*	*	*	*	*
!	!	!	!	!	!	!	!	!	!	!	!	!	!	!	!	!	!	!	!LO:TX:a:t=4	!	!	!LO:TX:a:t=4	!	!LO:TX:a:t=4	!	!
4BB-/	.	.	4B-/	.	8r	.	8r	.	2F\	tol-	2.r	.	2.r	.	2.r	.	2.ryy	2.ryy	0.r	0.r	2F\	0.r	.	0.r	.	2.r
.	.	.	.	.	8d/L	.	8f/L	.	.	.	.	.	.	.	.	.	.	.	.	.	.	.	.	.	.	.
4r	.	.	4r	.	8d/	.	8f/	.	.	.	.	.	.	.	.	.	.	.	.	.	.	.	.	.	.	.
.	.	.	.	.	8d/	.	8f/	.	.	.	.	.	.	.	.	.	.	.	.	.	.	.	.	.	.	.
4r	.	.	4r	.	8e-/	.	8g/	.	8G\	-lis	.	.	.	.	.	.	.	.	.	.	8G\L	.	.	.	.	.
.	.	.	.	.	8c/J	.	8an/J	.	8An\	pec-	.	.	.	.	.	.	.	.	.	.	8An\J	.	.	.	.	.
=16	=16	=16	=16	=16	=16	=16	=16	=16	=16	=16	=16	=16	=16	=16	=16	=16	=16	=16	=16	=16	=16	=16	=16	=16	=16	=16
4BB-/	.	.	4B-/	.	8r	.	8r	.	4B-\	-ca-	2.r	.	2.r	.	2.r	.	2.ryy	2.ryy	.	.	4B-\	.	.	.	.	2.r
.	.	.	.	.	8d/	.	8b-\	.	.	.	.	.	.	.	.	.	.	.	.	.	.	.	.	.	.	.
*	*	*	*	*	*	*	*2\right	*	*	*	*	*	*	*	*	*	*	*	*	*	*	*	*	*	*	*
*	*	*	*	*	*tremolo	*	*tremolo	*	*	*	*	*	*	*	*	*	*	*	*	*	*	*	*	*	*	*
4r	.	.	4r	.	8d/L	.	8b-\L	.	4B-\	-ta	.	.	.	.	.	.	.	.	.	.	4B-\	.	.	.	.	.
.	.	.	.	.	8d/	.	8b-\	.	.	.	.	.	.	.	.	.	.	.	.	.	.	.	.	.	.	.
4r	.	.	4r	.	8d/	.	8b-\	.	8c\L	pec-	.	.	.	.	.	.	.	.	.	.	8c\L	.	.	.	.	.
.	.	.	.	.	8d/J	.	8b-\J	.	8d\J	.	.	.	.	.	.	.	.	.	.	.	8d\J	.	.	.	.	.
*	*	*	*	*	*Xtremolo	*	*Xtremolo	*	*	*	*	*	*	*	*	*	*	*	*	*	*	*	*	*	*	*
=17	=17	=17	=17	=17	=17	=17	=17	=17	=17	=17	=17	=17	=17	=17	=17	=17	=17	=17	=17	=17	=17	=17	=17	=17	=17	=17
4F\	.	.	4F/	.	8r	.	8r	.	4.e-\	-ca-	2.r	.	2.r	.	2.r	.	2.ryy	2.ryy	.	.	4.e-\	.	.	.	.	2.r
.	.	.	.	.	8e-/	.	8cc\	.	.	.	.	.	.	.	.	.	.	.	.	.	.	.	.	.	.	.
*	*	*	*	*	*tremolo	*	*tremolo	*	*	*	*	*	*	*	*	*	*	*	*	*	*	*	*	*	*	*
4r	.	.	4B-/	.	8e-/L	.	8cc\L	.	.	.	.	.	.	.	.	.	.	.	.	.	.	.	.	.	.	.
*	*	*	*	*	*	*	*	*	*Xtuplet	*	*	*	*	*	*	*	*	*	*	*	*Xtuplet	*	*	*	*	*
.	.	.	.	.	8e-/	.	8cc\	.	24d\LL	.	.	.	.	.	.	.	.	.	.	.	24d\LL	.	.	.	.	.
.	.	.	.	.	.	.	.	.	24c\	.	.	.	.	.	.	.	.	.	.	.	24c\	.	.	.	.	.
.	.	.	.	.	.	.	.	.	24B-\JJ	.	.	.	.	.	.	.	.	.	.	.	24B-\JJ	.	.	.	.	.
4r	.	.	4r	.	8e-/	.	8cc\	.	(16An\LL	.	.	.	.	.	.	.	.	.	.	.	16An\LL	.	.	.	.	.
.	.	.	.	.	.	.	.	.	16G\	.	.	.	.	.	.	.	.	.	.	.	16G\	.	.	.	.	.
.	.	.	.	.	8e-/J	.	8cc\J	.	16F\)	.	.	.	.	.	.	.	.	.	.	.	16F\	.	.	.	.	.
.	.	.	.	.	.	.	.	.	16E-\JJ	-ta	.	.	.	.	.	.	.	.	.	.	16E-\JJ	.	.	.	.	.
*	*	*	*	*	*Xtremolo	*	*Xtremolo	*	*	*	*	*	*	*	*	*	*	*	*	*	*	*	*	*	*	*
!LO:LB:g=original	!	!	!	!	!	!	!	!	!	!	!	!	!	!	!	!	!	!	!	!	!	!	!	!	!	!
=18	=18	=18	=18	=18	=18	=18	=18	=18	=18	=18	=18	=18	=18	=18	=18	=18	=18	=18	=18	=18	=18	=18	=18	=18	=18	=18
4F\	.	.	4F/	.	4e-/	.	4cc\	.	4E-\	mun-	2.r	.	2.r	.	2.r	.	2.ryy	2.ryy	.	.	4E-\	.	.	.	.	2.r
4BB-/	.	.	4B-/	.	4d/	.	4b-\	.	4D\	-di	.	.	.	.	.	.	.	.	.	.	4D\	.	.	.	.	.
4r	.	.	4r	.	4r	.	4r	.	8F\	mi-	.	.	.	.	.	.	.	.	.	.	8F\L	.	.	.	.	.
.	.	.	.	.	.	.	.	.	8F\	-se-	.	.	.	.	.	.	.	.	.	.	8F\J	.	.	.	.	.
!	!	!	!	!	!	!	!	!	!	!	!	!	!	!	!	!	!	!	!	!	!LO:LB:g=original	!	!	!	!	!
=19	=19	=19	=19	=19	=19	=19	=19	=19	=19	=19	=19	=19	=19	=19	=19	=19	=19	=19	=19	=19	=19	=19	=19	=19	=19	=19
*	*	*	*	*	*	*	*tremolo	*	*	*	*	*	*	*	*	*	*	*	*	*	*	*	*	*	*	*
!	!	!	!	!	!	!	!	!	!	!	!	!	!	!	!	!	!	!	!	!	!	!	!	!	!LO:DY:t=pia	!
4BB-/	.	.	4F/	.	8B-/L	.	8d/L	.	8F\L	-re-	2.r	.	2.r	.	2.r	.	2.ryy	2.ryy	2b-/	2ff\	8F\L	2f/	.	2dd\	p	2.r
.	.	.	.	.	8d/	.	8f/	.	8d\J	.	.	.	.	.	.	.	.	.	.	.	8d\J	.	.	.	.	.
4D/	.	.	4F/	.	8B-/	.	8d/	.	4B-\	.	.	.	.	.	.	.	.	.	.	.	4B-\	.	.	.	.	.
.	.	.	.	.	8d/J	.	8f/J	.	.	.	.	.	.	.	.	.	.	.	.	.	.	.	.	.	.	.
*	*	*	*	*	*Xtremolo	*	*Xtremolo	*	*	*	*	*	*	*	*	*	*	*	*	*	*	*	*	*	*	*
!	!	!	!	!	!	!	!LO:LB:g=original	!	!	!	!	!	!	!	!	!	!	!	!	!	!	!	!	!	!	!
4F/	.	.	4F/	.	8c/L	.	8e-/L	.	16B-\LL	.	.	.	.	.	.	.	.	.	4ee-\	4ff\	16B-\LL	4e-/	.	4cc\	.	.
.	.	.	.	.	.	.	.	.	16An\	.	.	.	.	.	.	.	.	.	.	.	16An\	.	.	.	.	.
.	.	.	.	.	8An/J	.	8f/J	.	16G\	.	.	.	.	.	.	.	.	.	.	.	16G\	.	.	.	.	.
.	.	.	.	.	.	.	.	.	16A\JJ	-re	.	.	.	.	.	.	.	.	.	.	16A\JJ	.	.	.	.	.
!	!	!	!	!	!LO:LB:g=original	!	!	!	!LO:LB:g=original	!	!	!	!	!	!	!	!	!	!	!	!	!	!	!	!	!
=20	=20	=20	=20	=20	=20	=20	=20	=20	=20	=20	=20	=20	=20	=20	=20	=20	=20	=20	=20	=20	=20	=20	=20	=20	=20	=20
*	*	*	*	*	*tremolo	*	*tremolo	*	*	*	*	*	*	*	*	*	*	*	*	*	*	*	*	*	*	*
4B-\	.	.	4F/	.	8B-/L	.	8d/L	.	(8B-\L	no-	2.r	.	2.r	.	2.r	.	2.ryy	2.ryy	4b-/	4ff\	8B-\L	4d/	.	4b-\	.	2.r
.	.	.	.	.	8d/	.	8f/	.	8F\J)	.	.	.	.	.	.	.	.	.	.	.	8F\J	.	.	.	.	.
4BB-/	.	.	4F/	.	8B-/	.	8d/	.	4F\	-bis	.	.	.	.	.	.	.	.	4b-/	4ff\	4F\	4d/	.	4b-\	.	.
.	.	.	.	.	8d/	.	8f/	.	.	.	.	.	.	.	.	.	.	.	.	.	.	.	.	.	.	.
4r	.	.	4r	.	8B-/	.	8d/	.	8F\	mi-	.	.	.	.	.	.	.	.	4r	4r	4F\	4r	.	4r	.	.
.	.	.	.	.	8d/J	.	8f/J	.	8F\	-se-	.	.	.	.	.	.	.	.	.	.	.	.	.	.	.	.
!	!	!	!	!	!	!	!	!	!	!	!	!	!	!	!	!	!	!	!	!	!	!LO:LB:g=original	!	!	!	!
=21	=21	=21	=21	=21	=21	=21	=21	=21	=21	=21	=21	=21	=21	=21	=21	=21	=21	=21	=21	=21	=21	=21	=21	=21	=21	=21
!	!	!	!	!	!	!	!	!	!	!	!	!	!	!	!	!	!	!	!LO:TX:t=P:problem:takty 21-22 zapisane repetycją, wzięte w łuk, z adnotacją "bis"	!	!LO:TX:t=P:problem:takty 21-22 zapisane repetycją	!	!	!	!	!
4BB-/	.	.	4F/	.	8B-/L	.	8d/L	.	8F\L	-re-	2.r	.	2.r	.	2.r	.	2.ryy	2.ryy	2b-/yy	2ff\	8F\Lyy	2f/	.	2dd\	.	2.r
.	.	.	.	.	8d/	.	8f/	.	8d\J	.	.	.	.	.	.	.	.	.	.	.	8d\Jyy	.	.	.	.	.
4D/	.	.	4F/	.	8B-/	.	8d/	.	4B-\	.	.	.	.	.	.	.	.	.	.	.	4B-\yy	.	.	.	.	.
.	.	.	.	.	8d/J	.	8f/J	.	.	.	.	.	.	.	.	.	.	.	.	.	.	.	.	.	.	.
*	*	*	*	*	*Xtremolo	*	*Xtremolo	*	*	*	*	*	*	*	*	*	*	*	*	*	*	*	*	*	*	*
4F/	.	.	4F/	.	8c/L	.	8e-/L	.	16B-\LL	.	.	.	.	.	.	.	.	.	4ee-\yy	4ff\	16B-\LLyy	4e-/	.	4cc\	.	.
.	.	.	.	.	.	.	.	.	16An\	.	.	.	.	.	.	.	.	.	.	.	16An\yy	.	.	.	.	.
.	.	.	.	.	8An/J	.	8f/J	.	16G\	.	.	.	.	.	.	.	.	.	.	.	16G\yy	.	.	.	.	.
.	.	.	.	.	.	.	.	.	16A\JJ	-re	.	.	.	.	.	.	.	.	.	.	16A\JJyy	.	.	.	.	.
=22	=22	=22	=22	=22	=22	=22	=22	=22	=22	=22	=22	=22	=22	=22	=22	=22	=22	=22	=22	=22	=22	=22	=22	=22	=22	=22
4B-\	.	.	4F/	.	8B-/L	.	8d/L	.	(8B-\L	no-	2.r	.	2.r	.	2.r	.	2.ryy	2.ryy	4b-/yy	4ff\	8B-\Lyy	4d/	.	4b-\	.	2.r
.	.	.	.	.	8d/J	.	8f/J	.	8F\J)	.	.	.	.	.	.	.	.	.	.	.	8F\Jyy	.	.	.	.	.
4BB-/	.	.	4F/	.	4B-/	.	4d/	.	4F\	-bis	.	.	.	.	.	.	.	.	4b-/yy	4ff\	4F\yy	4d/	.	4b-\	.	.
4r	.	.	4r	.	4r	.	4r	.	8F\	mi-	.	.	.	.	.	.	.	.	4ryy	4r	4F\yy	4r	.	4r	.	.
.	.	.	.	.	.	.	.	.	8F\	-se-	.	.	.	.	.	.	.	.	.	.	.	.	.	.	.	.
!	!	!	!	!	!	!	!	!	!	!	!	!	!	!	!	!	!	!	!LO:LB:g=original	!	!	!	!	!	!	!
=23	=23	=23	=23	=23	=23	=23	=23	=23	=23	=23	=23	=23	=23	=23	=23	=23	=23	=23	=23	=23	=23	=23	=23	=23	=23	=23
!	!	!	!	!	!	!	!	!	!	!	!	!	!	!	!	!	!	!	!LO:TX:a:t=2	!LO:TX:a:t=2	!	!LO:TX:a:t=2	!	!LO:TX:a:t=2	!	!
4BB-/	.	.	4B-/	.	8r	.	8r	.	4.B-\	-re-	2.r	.	2.r	.	2.r	.	2.ryy	2.ryy	1.r	1.r	4.B-\	1.r	.	1.r	.	2.r
.	.	.	.	.	8d 8B-/	.	8f/	.	.	.	.	.	.	.	.	.	.	.	.	.	.	.	.	.	.	.
*	*	*	*	*	*tremolo	*	*tremolo	*	*	*	*	*	*	*	*	*	*	*	*	*	*	*	*	*	*	*
4r	.	.	4r	.	8d 8B-/L	.	8f/L	.	.	.	.	.	.	.	.	.	.	.	.	.	.	.	.	.	.	.
.	.	.	.	.	8d 8B-/	.	8f/	.	24c\LL	.	.	.	.	.	.	.	.	.	.	.	24c\LL	.	.	.	.	.
.	.	.	.	.	.	.	.	.	24d\	.	.	.	.	.	.	.	.	.	.	.	24d\	.	.	.	.	.
.	.	.	.	.	.	.	.	.	24c\JJ	.	.	.	.	.	.	.	.	.	.	.	24c\JJ	.	.	.	.	.
4D\	6	.	4B-/	.	8d 8B-/	.	8f/	.	16B-\LL	.	.	.	.	.	.	.	.	.	.	.	16B-\LL	.	.	.	.	.
.	.	.	.	.	.	.	.	.	16An\	.	.	.	.	.	.	.	.	.	.	.	16An\	.	.	.	.	.
.	.	.	.	.	8d 8B-/J	.	8f/J	.	16G\	.	.	.	.	.	.	.	.	.	.	.	16G\	.	.	.	.	.
.	.	.	.	.	.	.	.	.	16F#X\JJ	-re	.	.	.	.	.	.	.	.	.	.	16F#X\JJ	.	.	.	.	.
*	*	*	*	*	*Xtremolo	*	*Xtremolo	*	*	*	*	*	*	*	*	*	*	*	*	*	*	*	*	*	*	*
!	!	!	!LO:LB:g=original	!	!	!	!	!	!LO:LB:g=original	!	!	!	!	!	!	!	!	!	!	!	!	!	!	!	!	!
=24	=24	=24	=24	=24	=24	=24	=24	=24	=24	=24	=24	=24	=24	=24	=24	=24	=24	=24	=24	=24	=24	=24	=24	=24	=24	=24
4E-\	3	.	4e-\	.	8r	.	8r	.	8G\	mi-	2.r	.	2.r	.	2.r	.	2.ryy	2.ryy	.	.	8G\L	.	.	.	.	2.r
.	.	.	.	.	8e- 8B-/	.	8g/	.	16An\LL	-se-	.	.	.	.	.	.	.	.	.	.	16An\L	.	.	.	.	.
.	.	.	.	.	.	.	.	.	16Bn\JJ	.	.	.	.	.	.	.	.	.	.	.	16Bn\JJ	.	.	.	.	.
*	*	*	*	*	*tremolo	*	*tremolo	*	*	*	*	*	*	*	*	*	*	*	*	*	*	*	*	*	*	*
4r	.	.	4r	.	8e- 8B-/L	.	8g/L	.	16c\LL	-re-	.	.	.	.	.	.	.	.	.	.	16c\LL	.	.	.	.	.
.	.	.	.	.	.	.	.	.	16B\	.	.	.	.	.	.	.	.	.	.	.	16B\	.	.	.	.	.
.	.	.	.	.	8e- 8B-/	.	8g/	.	16c\	.	.	.	.	.	.	.	.	.	.	.	16c\	.	.	.	.	.
.	.	.	.	.	.	.	.	.	16d\JJ	.	.	.	.	.	.	.	.	.	.	.	16d\JJ	.	.	.	.	.
4E-\	.	.	4e-\	.	8e- 8B-/	.	8g/	.	8e-\L	.	.	.	.	.	.	.	.	.	.	.	8e-\L	.	.	.	.	.
.	.	.	.	.	8e- 8B-/J	.	8g/J	.	8c\J	-re	.	.	.	.	.	.	.	.	.	.	8c\J	.	.	.	.	.
*	*	*	*	*	*Xtremolo	*	*Xtremolo	*	*	*	*	*	*	*	*	*	*	*	*	*	*	*	*	*	*	*
!	!	!	!	!	!	!	!	!	!	!	!	!	!	!	!	!	!	!	!	!LO:LB:g=original	!	!	!	!	!	!
=25	=25	=25	=25	=25	=25	=25	=25	=25	=25	=25	=25	=25	=25	=25	=25	=25	=25	=25	=25	=25	=25	=25	=25	=25	=25	=25
4F\	4	.	4f\	.	8r	.	8r	.	4.B-X\	no-	2.r	.	2.r	.	2.r	.	2.ryy	2.ryy	2b-/	2ff\	4.B-X\	2f/	.	2dd\	.	2.r
.	.	.	.	.	8dL 8B-/	.	8b-\L	.	.	.	.	.	.	.	.	.	.	.	.	.	.	.	.	.	.	.
4r	.	.	4r	.	8d 8B-/	.	8b-\	.	.	.	.	.	.	.	.	.	.	.	.	.	.	.	.	.	.	.
.	.	.	.	.	8d 8B-/	.	8b-\J	.	8d\L	.	.	.	.	.	.	.	.	.	.	.	8d\L	.	.	.	.	.
4FF/	n	.	4F/	.	8e- 8c/	.	8an\L	.	8F\	.	.	.	.	.	.	.	.	.	4ff\	4ff\	8F\	4e-/	.	4cc\	.	.
.	.	.	.	.	8e-J 8c/	.	8a\J	.	8An\J	.	.	.	.	.	.	.	.	.	.	.	8An\J	.	.	.	.	.
!	!	!	!	!	!LO:LB:g=original	!	!	!	!	!	!	!	!	!	!	!	!	!	!	!	!	!	!	!	!	!
=26	=26	=26	=26	=26	=26	=26	=26	=26	=26	=26	=26	=26	=26	=26	=26	=26	=26	=26	=26	=26	=26	=26	=26	=26	=26	=26
4BB-/	.	.	4F/	.	8b-\	.	8dd\	.	4B-\	-bis	2.r	.	2.r	.	2.r	.	2.ryy	2.ryy	4b-/	4ee-\	4B-\	4d/	.	4b-\	.	2.r
!	!	!	!	!	!	!	!LO:LB:g=original	!	!	!	!	!	!	!	!	!	!	!	!	!	!	!	!	!	!	!
.	.	.	.	.	4dd\	.	4ff\	.	.	.	.	.	.	.	.	.	.	.	.	.	.	.	.	.	.	.
4r	.	.	4r	.	.	.	.	.	4r	.	.	.	.	.	.	.	.	.	4r	4r	4r	4r	.	4r	.	.
.	.	.	.	.	8ff\	.	8bb-\	.	.	.	.	.	.	.	.	.	.	.	.	.	.	.	.	.	.	.
4B-\	3	.	4F/	.	8bb-\L	.	8ddd\L	.	4r	.	.	.	.	.	.	.	.	.	4r	4r	4r	4r	.	4r	.	.
.	.	.	.	.	8dd\J	.	8ff\J	.	.	.	.	.	.	.	.	.	.	.	.	.	.	.	.	.	.	.
!LO:LB:g=original	!	!	!	!	!	!	!	!	!	!	!	!	!	!	!	!	!	!	!	!	!	!	!	!	!	!
=27	=27	=27	=27	=27	=27	=27	=27	=27	=27	=27	=27	=27	=27	=27	=27	=27	=27	=27	=27	=27	=27	=27	=27	=27	=27	=27
!	!	!	!	!	!	!	!	!	!LO:TX:a:t=3.	!	!	!	!	!	!	!	!	!	!LO:TX:a:t=1	!	!LO:TX:a:t=1	!LO:TX:a:t=1	!	!LO:TX:a:t=1	!	!
4F\	n	.	4F/	.	8cc\	.	8cc\	.	1.r	.	2.r	.	2.r	.	2.r	.	2.ryy	2.ryy	2.r	2.r	2.r	2.r	.	2.r	.	2.r
.	.	.	.	.	4cc\	.	4ee-\	.	.	.	.	.	.	.	.	.	.	.	.	.	.	.	.	.	.	.
4r	.	.	4r	.	.	.	.	.	.	.	.	.	.	.	.	.	.	.	.	.	.	.	.	.	.	.
.	.	.	.	.	8cc\	.	8aa-\	.	.	.	.	.	.	.	.	.	.	.	.	.	.	.	.	.	.	.
4FF/	.	.	4F/	.	8ee-\L	.	8ccc\L	.	.	.	.	.	.	.	.	.	.	.	.	.	.	.	.	.	.	.
!	!	!	!	!	!	!	!	!	!	!	!	!	!	!	!	!	!	!	!	!	!LO:TX:b:i:t=Verte Subito.	!	!	!	!	!
.	.	.	.	.	8cc\J	.	8ee-\J	.	.	.	.	.	.	.	.	.	.	.	.	.	.	.	.	.	.	.
!	!	!	!	!	!	!	!	!	!	!	!	!	!	!	!	!	!	!	!	!	!LO:PB:g=original	!	!	!	!	!
=28	=28	=28	=28	=28	=28	=28	=28	=28	=28	=28	=28	=28	=28	=28	=28	=28	=28	=28	=28	=28	=28	=28	=28	=28	=28	=28
4BB-/	3	.	4B-\	.	8b-\	.	8dd\	.	.	.	2.r	.	2.r	.	2.r	.	2.ryy	2.ryy	2b-/	2ff\	2d\	2f/	.	2dd\	.	2.r
.	.	.	.	.	4dd\	.	4ff\	.	.	.	.	.	.	.	.	.	.	.	.	.	.	.	.	.	.	.
4D/	8	.	4d\	.	.	.	.	.	.	.	.	.	.	.	.	.	.	.	.	.	.	.	.	.	.	.
.	.	.	.	.	8f/	.	8dd\	.	.	.	.	.	.	.	.	.	.	.	.	.	.	.	.	.	.	.
4F\	5	.	4f\	.	8en/L	.	8cc\L	.	.	.	.	.	.	.	.	.	.	.	4ff\	4ff\	4c\	4e-/	.	4cc\	.	.
.	.	.	.	.	8e-X/J	.	8an\J	.	.	.	.	.	.	.	.	.	.	.	.	.	.	.	.	.	.	.
=29	=29	=29	=29	=29	=29	=29	=29	=29	=29	=29	=29	=29	=29	=29	=29	=29	=29	=29	=29	=29	=29	=29	=29	=29	=29	=29
!LO:TX:t=P:problem:mixed beam	!	!LO:DY:t=for	!LO:TX:t=P:problem:mixed beam	!	!	!LO:DY:rj	!LO:TX:t=P:problem:mixed beam	!LO:DY:rj:t=fr	!	!	!	!	!	!	!	!	!	!	!	!	!	!	!	!	!	!
8B-\L	.	f	8b-\L	.	8d/L	f	8b-\L	f	2.r	.	2.r	.	2.r	.	2.r	.	2.ryy	2.ryy	4b-/	4ff\	4B-\	4d/	.	4b-\	.	2.r
16BB-'/L	.	.	16B-/L	.	16B-/L	.	16B-/L	.	.	.	.	.	.	.	.	.	.	.	.	.	.	.	.	.	.	.
16AAn'/JJ	.	.	16An/JJ	.	16An/JJ	.	16An/JJ	.	.	.	.	.	.	.	.	.	.	.	.	.	.	.	.	.	.	.
8BB-'/L	.	.	8B-/L	.	8B-/L	.	8B-/L	.	.	.	.	.	.	.	.	.	.	.	4r	4r	4r	4r	.	4r	.	.
16C'/L	.	.	16c/L	.	16c/L	.	16c/L	.	.	.	.	.	.	.	.	.	.	.	.	.	.	.	.	.	.	.
16D'/JJ	.	.	16d/JJ	.	16d/JJ	.	16d/JJ	.	.	.	.	.	.	.	.	.	.	.	.	.	.	.	.	.	.	.
16E-'\LL	.	.	16e-\LL	.	16e-/LL	.	16e-/LL	.	.	.	.	.	.	.	.	.	.	.	4r	4r	4r	4r	.	4r	.	.
16F'\	.	.	16f\	.	16f/	.	16f/	.	.	.	.	.	.	.	.	.	.	.	.	.	.	.	.	.	.	.
16G'\	.	.	16g\	.	16g/	.	16g/	.	.	.	.	.	.	.	.	.	.	.	.	.	.	.	.	.	.	.
16A-'\JJ	.	.	16an\JJ	.	16an/JJ	.	16an/JJ	.	.	.	.	.	.	.	.	.	.	.	.	.	.	.	.	.	.	.
!	!	!	!	!	!LO:LB:g=original	!	!	!	!	!	!	!	!	!	!	!	!	!	!	!	!	!	!	!LO:LB:g=original	!	!
=30	=30	=30	=30	=30	=30	=30	=30	=30	=30	=30	=30	=30	=30	=30	=30	=30	=30	=30	=30	=30	=30	=30	=30	=30	=30	=30
*	*	*	*	*	*	*	*	*	*	*	*2\right	*	*	*color:darkblue	*	*	*	*	*	*	*	*	*	*	*	*2\right
!	!	!	!	!	!	!	!	!	!	!	!	!	!	!	!	!	!	!	!LO:TX:t=P:problem:takty 30-31 zapisane repetycją	!	!	!LO:TX:t=P:problem:takty 30-31 zapisane repetycją, wzięte w łuk, z adnotacją "bis"	!	!	!	!
4B-'\	.	.	4b-\	.	4b-\	.	4b-\	.	2B-\	Su-	2B-\	Su-	(4d\	Sus-	4b-\	Sus-	2.ryy	2.ryy	2b-/yy	2ff\	2d\	2f/yy	.	2dd\	.	2ddd\
4r	.	.	4r	.	4r	.	4r	.	.	.	.	.	4f\)	.	4dd\	-ci-	.	.	.	.	.	.	.	.	.	.
4r	.	.	4r	.	4r	.	4r	.	4F\	-sci-	4f\	-sci-	4e-\	-ci-	4cc\	.	.	.	4ff\yy	4ff\	4c\	4e-/yy	.	4cc\	.	4ccc\
!	!	!	!LO:LB:g=original	!	!	!	!	!	!	!	!	!	!	!	!	!	!	!	!	!	!	!	!	!	!	!
=31	=31	=31	=31	=31	=31	=31	=31	=31	=31	=31	=31	=31	=31	=31	=31	=31	=31	=31	=31	=31	=31	=31	=31	=31	=31	=31
!	!	!	!	!	!	!	!LO:TX:t=P:problem:takty 31-32 zapisane repetycją, wzięte w łuk, z adnotacją "bis"	!	!	!	!	!	!	!	!	!	!	!	!	!	!	!	!	!	!	!
!LO:TX:t=P:problem:mixed beam	!	!	!LO:TX:t=P:problem:mixed beam	!	!LO:TX:t=P:problem:mixed beam	!	!LO:TX:t=P:problem:mixed beam	!LO:DY:rj:t=fr	!	!	!	!	!	!	!	!	!	!	!	!	!	!	!	!	!	!
8B-\L	.	.	8b-\L	.	8b-\L	.	8b-\Lyy	fy	4BB-/	-pe	2B-\	-pe	4d\	-pe	4b-\	-pe	2.ryy	2.ryy	4b-/yy	4ff\	4B-\	4d/yy	.	4b-\	.	4bb-\
16BB-'/L	.	.	16B-/L	.	16B-/L	.	16B-/Lyy	.	.	.	.	.	.	.	.	.	.	.	.	.	.	.	.	.	.	.
16AAn'/JJ	.	.	16A-/JJ	.	16An/JJ	.	16An/JJyy	.	.	.	.	.	.	.	.	.	.	.	.	.	.	.	.	.	.	.
8BB-'/L	.	.	8B-/L	.	8B-/L	.	8B-/Lyy	.	4r	.	.	.	4r	.	4r	.	.	.	4ryy	4r	4r	4ryy	.	4r	.	4r
16C'/L	.	.	16c/L	.	16c/L	.	16c/Lyy	.	.	.	.	.	.	.	.	.	.	.	.	.	.	.	.	.	.	.
16D'/JJ	.	.	16d/JJ	.	16d/JJ	.	16d/JJyy	.	.	.	.	.	.	.	.	.	.	.	.	.	.	.	.	.	.	.
16E-'\LL	.	.	16e-\LL	.	16e-/LL	.	16e-/LLyy	.	4r	.	4r	.	4r	.	4r	.	.	.	4ryy	4r	4r	4ryy	.	4r	.	4r
16F'\	.	.	16f\	.	16f/	.	16f/yy	.	.	.	.	.	.	.	.	.	.	.	.	.	.	.	.	.	.	.
16G'\	.	.	16g\	.	16g/	.	16g/yy	.	.	.	.	.	.	.	.	.	.	.	.	.	.	.	.	.	.	.
16A-'\JJ	.	.	16an\JJ	.	16an/JJ	.	16an/JJyy	.	.	.	.	.	.	.	.	.	.	.	.	.	.	.	.	.	.	.
!	!	!	!	!	!	!	!	!	!LO:LB:g=original	!	!	!	!	!	!	!	!	!	!	!	!	!	!	!	!	!
=32	=32	=32	=32	=32	=32	=32	=32	=32	=32	=32	=32	=32	=32	=32	=32	=32	=32	=32	=32	=32	=32	=32	=32	=32	=32	=32
*	*	*	*	*	*	*	*	*	*	*	*	*	*	*ij	*	*	*	*	*	*	*	*	*	*	*	*
4B-'\	.	.	4b-\	.	4b-\	.	4b-\yy	.	2B-\	Su-	2B-\	Su-	(4d\	sus-	4b-\	Su-	2.ryy	2.ryy	2b-/	2ff\	2d\	2f/	.	2dd\	.	2ddd\
4r	.	.	4r	.	4r	.	4ryy	.	.	.	.	.	4f\)	.	4dd\	-sci-	.	.	.	.	.	.	.	.	.	.
4r	.	.	4r	.	4r	.	4ryy	.	4F\	-sci-	4f\	-sci-	4e-\	-ci-	4cc\	.	.	.	4ff\	4ff\	4c\	4e-/	.	4cc\	.	4ccc\
!LO:LB:g=original	!	!	!	!	!	!	!LO:LB:g=original	!	!	!	!	!	!	!	!	!	!	!	!	!	!	!LO:LB:g=original	!	!	!	!
=33	=33	=33	=33	=33	=33	=33	=33	=33	=33	=33	=33	=33	=33	=33	=33	=33	=33	=33	=33	=33	=33	=33	=33	=33	=33	=33
!LO:TX:t=P:problem:mixed beam	!	!	!LO:TX:t=P:problem:mixed beam	!	!LO:TX:t=P:problem:mixed beam	!	!LO:TX:t=P:problem:mixed beam	!	!	!	!	!	!	!	!	!	!	!	!	!	!	!	!	!	!	!
8B-'\L	.	.	8b-\L	.	8b-\L	.	8b-\L	.	4BB-/	-pe	4B-\	-pe	4d\	-pe	4b-\	-pe	2.ryy	2.ryy	4b-/	4ff\	4B-\	4d/	.	4b-\	.	4bb-\
*	*	*	*	*	*	*	*	*	*	*	*	*	*	*Xij	*	*	*	*	*	*	*	*	*	*	*	*
16BB-'/L	.	.	16B-/L	.	16B-/L	.	16B-/L	.	.	.	.	.	.	.	.	.	.	.	.	.	.	.	.	.	.	.
16AAn'/JJ	.	.	16An/JJ	.	16An/JJ	.	16An/JJ	.	.	.	.	.	.	.	.	.	.	.	.	.	.	.	.	.	.	.
16BB-'/LL	.	.	16B-\LL	.	16B-/LL	.	16B-/LL	.	4B-\	de-	4B-\	de-	4d\	de-	4b-\	de-	.	.	4b-/	4ff\	4B-\	4d/	.	4b-\	.	4bb-\
16C'/	.	.	16c\	.	16c/	.	16c/	.	.	.	.	.	.	.	.	.	.	.	.	.	.	.	.	.	.	.
16D'/	8	.	16d\	.	16d/	.	16d/	.	.	.	.	.	.	.	.	.	.	.	.	.	.	.	.	.	.	.
16E-'/JJ	.	.	16e-\JJ	.	16e-/JJ	.	16e-/JJ	.	.	.	.	.	.	.	.	.	.	.	.	.	.	.	.	.	.	.
16F'\LL	.	.	16f\LL	.	16f/LL	.	16f/LL	.	4B-\	-pre-	4B-\	-pre-	4d\	-pre-	4b-\	-pre-	.	.	4b-/	4ff\	4B-\	4d/	.	4b-\	.	4bb-\
16G'\	.	.	16g\	.	16g/	.	16g/	.	.	.	.	.	.	.	.	.	.	.	.	.	.	.	.	.	.	.
16An'\	4	.	16a-\	.	16an/	.	16an/	.	.	.	.	.	.	.	.	.	.	.	.	.	.	.	.	.	.	.
16B-'\JJ	.	.	16b-\JJ	.	16b-/JJ	.	16b-/JJ	.	.	.	.	.	.	.	.	.	.	.	.	.	.	.	.	.	.	.
!	!	!	!	!	!	!	!	!	!	!	!	!	!LO:LB:g=original	!	!	!	!	!	!	!	!	!	!	!	!	!
=34	=34	=34	=34	=34	=34	=34	=34	=34	=34	=34	=34	=34	=34	=34	=34	=34	=34	=34	=34	=34	=34	=34	=34	=34	=34	=34
*	*	*	*	*	*	*	*	*	*	*	*	*	*2\right	*	*2\right	*	*	*	*2\right	*	*	*	*	*	*	*
8An\L	8	.	8an\L	.	8an/L	.	8an/L	.	2An\	-ca-	2c\	-ca-	2e-\	-ca-	2dd\	-ca-	2.ryy	2.ryy	2ff\	2ff\	2c\	2e-/	.	2cc\	.	2ccc\
16F\L	.	.	16f\L	.	16f/L	.	16f/L	.	.	.	.	.	.	.	.	.	.	.	.	.	.	.	.	.	.	.
16En\JJ	.	.	16en\JJ	.	16en/JJ	.	16en/JJ	.	.	.	.	.	.	.	.	.	.	.	.	.	.	.	.	.	.	.
!	!	!	!	!	!LO:LB:g=original	!	!	!	!	!	!	!	!	!	!	!	!	!	!	!	!	!	!	!	!	!
16F\LL	.	.	16f\LL	.	16f/LL	.	16f/LL	.	.	.	.	.	.	.	.	.	.	.	.	.	.	.	.	.	.	.
16G\	.	.	16g\	.	16g/	.	16g/	.	.	.	.	.	.	.	.	.	.	.	.	.	.	.	.	.	.	.
16A\	.	.	16a\	.	16a/	.	16a/	.	.	.	.	.	.	.	.	.	.	.	.	.	.	.	.	.	.	.
16B-\JJ	.	.	16b-\JJ	.	16b-/JJ	.	16b-/JJ	.	.	.	.	.	.	.	.	.	.	.	.	.	.	.	.	.	.	.
16A\LL	.	.	16a\LL	.	16a\LL	.	16a/LL	.	4A\	-ti-	4c\	-ti-	4e-\	-ti-	4cc\	-ti-	.	.	4ff\	4ff\	4c\	4e-/	.	4cc\	.	4ccc\
16B-\	.	.	16b-\	.	16b-\	.	16b-/	.	.	.	.	.	.	.	.	.	.	.	.	.	.	.	.	.	.	.
16c\	.	.	16cc\	.	16cc\	.	16cc/	.	.	.	.	.	.	.	.	.	.	.	.	.	.	.	.	.	.	.
16d\JJ	.	.	16dd\JJ	.	16dd\JJ	.	16dd/JJ	.	.	.	.	.	.	.	.	.	.	.	.	.	.	.	.	.	.	.
!	!	!	!LO:LB:g=original	!	!	!	!	!	!	!	!	!	!	!	!	!	!	!	!	!	!	!	!	!	!	!
=35	=35	=35	=35	=35	=35	=35	=35	=35	=35	=35	=35	=35	=35	=35	=35	=35	=35	=35	=35	=35	=35	=35	=35	=35	=35	=35
*	*	*	*	*	*	*	*	*	*	*	*	*	*	*	*	*	*	*	*	*	*	*2\right	*	*	*	*
16e-\LL	8	.	16ee-\LL	.	16ee-X\LL	.	16ee-X\LL	.	2F\	-o-	2f\	-o-	2cc\	-o-	2ee-\	-o-	2.ryy	2.ryy	2ff\	2ff\	2e-\	2cc\	.	2ee-\	.	2eee-\
16d\	.	.	16dd\	.	16dd\	.	16dd\	.	.	.	.	.	.	.	.	.	.	.	.	.	.	.	.	.	.	.
16e-\	.	.	16ee-\	.	16ee-\	.	16ee-\	.	.	.	.	.	.	.	.	.	.	.	.	.	.	.	.	.	.	.
16d\JJ	.	.	16dd\JJ	.	16dd\JJ	.	16dd\JJ	.	.	.	.	.	.	.	.	.	.	.	.	.	.	.	.	.	.	.
16e-\LL	.	.	16ee-\LL	.	16ee-\LL	.	16ee-\LL	.	.	.	.	.	.	.	.	.	.	.	.	.	.	.	.	.	.	.
16d\	.	.	16dd\	.	16dd\	.	16dd\	.	.	.	.	.	.	.	.	.	.	.	.	.	.	.	.	.	.	.
16c\	.	.	16cc\	.	16cc\	.	16cc\	.	.	.	.	.	.	.	.	.	.	.	.	.	.	.	.	.	.	.
16B-\JJ	.	.	16b-\JJ	.	16b-\JJ	.	16b-\JJ	.	.	.	.	.	.	.	.	.	.	.	.	.	.	.	.	.	.	.
16An\LL	.	.	16an\LL	.	16a-\LL	.	16an\LL	.	4F\	-nem	4f\	-nem	4cc\	-nem	4ee-\	-nem	.	.	4ff\	4ff\	4e-\	4cc\	.	4ee-\	.	4eee-\
16B-\	.	.	16b-\	.	16b-\	.	16b-\	.	.	.	.	.	.	.	.	.	.	.	.	.	.	.	.	.	.	.
16c\	.	.	16cc\	.	16cc\	.	16cc\	.	.	.	.	.	.	.	.	.	.	.	.	.	.	.	.	.	.	.
16A\JJ	.	.	16a\JJ	.	16b-\JJ	.	16a\JJ	.	.	.	.	.	.	.	.	.	.	.	.	.	.	.	.	.	.	.
!LO:LB:g=original	!	!	!	!	!	!	!LO:LB:g=original	!	!	!	!LO:LB:g=original	!	!	!	!	!	!	!	!LO:LB:g=original	!	!	!	!	!	!	!LO:LB:g=original
=36	=36	=36	=36	=36	=36	=36	=36	=36	=36	=36	=36	=36	=36	=36	=36	=36	=36	=36	=36	=36	=36	=36	=36	=36	=36	=36
16B-\LL	3	.	16b-\LL	.	16b-\LL	.	16b-\LL	.	2B-\	nos-	2f\	nos-	2b-\	nos-	2dd\	nos-	2.ryy	2.ryy	2b-/	2ff\	2d\	2b-\	.	2dd\	.	2ddd\
16An\	.	.	16an\	.	16a-\	.	16a-\	.	.	.	.	.	.	.	.	.	.	.	.	.	.	.	.	.	.	.
16B-\	.	.	16b-\	.	16b-\	.	16b-\	.	.	.	.	.	.	.	.	.	.	.	.	.	.	.	.	.	.	.
16A\JJ	.	.	16a\JJ	.	16a-\JJ	.	16a-\JJ	.	.	.	.	.	.	.	.	.	.	.	.	.	.	.	.	.	.	.
16B-\LL	.	.	16b-\LL	.	16b-\LL	.	16b-\LL	.	.	.	.	.	.	.	.	.	.	.	.	.	.	.	.	.	.	.
16c\	.	.	16cc\	.	16cc\	.	16cc\	.	.	.	.	.	.	.	.	.	.	.	.	.	.	.	.	.	.	.
16d\	.	.	16dd\	.	16dd\	.	16dd\	.	.	.	.	.	.	.	.	.	.	.	.	.	.	.	.	.	.	.
16c\JJ	.	.	16cc\JJ	.	16cc\JJ	.	16cc\JJ	.	.	.	.	.	.	.	.	.	.	.	.	.	.	.	.	.	.	.
16B-\LL	.	.	16b-\LL	.	16b-/LL	.	16b-/LL	.	4B-\	-tram	4f\	-tram	4b-\	-tram	4dd\	-tram	.	.	4b-/	4ff\	4d\	4b-\	.	4dd\	.	4ddd\
16F\	.	.	16f\	.	16f/	.	16f/	.	.	.	.	.	.	.	.	.	.	.	.	.	.	.	.	.	.	.
16D\	.	.	16d\	.	16d/	.	16d/	.	.	.	.	.	.	.	.	.	.	.	.	.	.	.	.	.	.	.
16BB-\JJ	.	.	16B-\JJ	.	16B-/JJ	.	16B-/JJ	.	.	.	.	.	.	.	.	.	.	.	.	.	.	.	.	.	.	.
!	!	!	!	!	!	!	!	!	!	!	!	!	!	!	!	!	!	!	!	!LO:LB:g=original	!	!	!	!	!	!
=37	=37	=37	=37	=37	=37	=37	=37	=37	=37	=37	=37	=37	=37	=37	=37	=37	=37	=37	=37	=37	=37	=37	=37	=37	=37	=37
*tremolo	*	*	*tremolo	*	*tremolo	*	*	*	*	*	*	*	*	*	*	*	*	*	*	*	*	*	*	*	*	*
8E-\L	3	.	8B-/L	.	8g/L	.	16g\LL	.	2E-\	de-	2e-\	de-	2g\	de-	2dd\	de-	2.ryy	2.ryy	2ee-\	2gg\	2c\	2e-/	.	2cc\	.	2ccc\
.	.	.	.	.	.	.	16cc\	.	.	.	.	.	.	.	.	.	.	.	.	.	.	.	.	.	.	.
8E-\	.	.	8B-/	.	8g/	.	16bn\	.	.	.	.	.	.	.	.	.	.	.	.	.	.	.	.	.	.	.
.	.	.	.	.	.	.	16cc\JJ	.	.	.	.	.	.	.	.	.	.	.	.	.	.	.	.	.	.	.
8E-\	.	.	8B-/	.	8g/	.	16dd\LL	.	.	.	.	.	.	.	.	.	.	.	.	.	.	.	.	.	.	.
.	.	.	.	.	.	.	16cc\	.	.	.	.	.	.	.	.	.	.	.	.	.	.	.	.	.	.	.
8E-\	.	.	8B-/	.	8g/	.	16b\	.	.	.	.	.	.	.	.	.	.	.	.	.	.	.	.	.	.	.
.	.	.	.	.	.	.	16cc\JJ	.	.	.	.	.	.	.	.	.	.	.	.	.	.	.	.	.	.	.
8E-\	.	.	8B-/	.	8g/	.	16b\LL	.	4E-\	-pre-	4e-\	-pre-	4g\	-pre-	4cc\	-pre-	.	.	4ee-\	4gg\	4c\	4e-/	.	4cc\	.	4ccc\
.	.	.	.	.	.	.	16cc\	.	.	.	.	.	.	.	.	.	.	.	.	.	.	.	.	.	.	.
8E-\J	.	.	8B-/J	.	8g/J	.	16dd\	.	.	.	.	.	.	.	.	.	.	.	.	.	.	.	.	.	.	.
.	.	.	.	.	.	.	16cc\JJ	.	.	.	.	.	.	.	.	.	.	.	.	.	.	.	.	.	.	.
!	!	!	!	!	!LO:LB:g=original	!	!	!	!	!	!	!	!	!	!LO:LB:g=original	!	!	!	!	!	!LO:LB:g=original	!	!	!	!	!
=38	=38	=38	=38	=38	=38	=38	=38	=38	=38	=38	=38	=38	=38	=38	=38	=38	=38	=38	=38	=38	=38	=38	=38	=38	=38	=38
8D\L	3	.	8B-/L	.	8f/L	.	16f\LL	.	2D\	-ca-	2f\	-ca-	2f\	-ca-	2b-\	-ca-	2.ryy	2.ryy	2b-/	2ff\	2B-\	2d/	.	2b-\	.	2bb-\
.	.	.	.	.	.	.	16b-X\	.	.	.	.	.	.	.	.	.	.	.	.	.	.	.	.	.	.	.
8D\	.	.	8B-/	.	8f/	.	16an\	.	.	.	.	.	.	.	.	.	.	.	.	.	.	.	.	.	.	.
.	.	.	.	.	.	.	16b-\JJ	.	.	.	.	.	.	.	.	.	.	.	.	.	.	.	.	.	.	.
8D\	.	.	8B-/	.	8f/	.	16cc\LL	.	.	.	.	.	.	.	.	.	.	.	.	.	.	.	.	.	.	.
.	.	.	.	.	.	.	16b-\	.	.	.	.	.	.	.	.	.	.	.	.	.	.	.	.	.	.	.
8D\	.	.	8B-/	.	8f/	.	16a\	.	.	.	.	.	.	.	.	.	.	.	.	.	.	.	.	.	.	.
.	.	.	.	.	.	.	16b-\JJ	.	.	.	.	.	.	.	.	.	.	.	.	.	.	.	.	.	.	.
8D\	.	.	8B-/	.	8f/	.	16a\LL	.	4D\	-ti-	4f\	-ti-	4f\	-ti-	4b-\	-ti-	.	.	4b-/	4ff\	4B-\	4d/	.	4b-\	.	4bb-\
.	.	.	.	.	.	.	16b-\	.	.	.	.	.	.	.	.	.	.	.	.	.	.	.	.	.	.	.
8D\J	.	.	8B-/J	.	8f/J	.	16dd\	.	.	.	.	.	.	.	.	.	.	.	.	.	.	.	.	.	.	.
.	.	.	.	.	.	.	16b-\JJ	.	.	.	.	.	.	.	.	.	.	.	.	.	.	.	.	.	.	.
*Xtremolo	*	*	*Xtremolo	*	*Xtremolo	*	*	*	*	*	*	*	*	*	*	*	*	*	*	*	*	*	*	*	*	*
!	!	!	!LO:LB:g=original	!	!	!	!	!	!	!	!	!	!	!	!	!	!	!	!	!	!	!	!	!	!	!
=39	=39	=39	=39	=39	=39	=39	=39	=39	=39	=39	=39	=39	=39	=39	=39	=39	=39	=39	=39	=39	=39	=39	=39	=39	=39	=39
!LO:TX:t=P:problem:mixed beam	!	!	!LO:TX:t=P:problem:mixed beam	!	!	!	!	!	!	!	!	!	!	!	!	!	!	!	!	!	!	!	!	!	!	!
8E-\L	6	.	8e-\L	.	16e-/LL	.	16cc\LL	.	8E-\	-o-	8g\	-o-	8e-\	-o-	8cc\L	-o-	2.ryy	2.ryy	4ee-\	4gg\	4c\	4e-/	.	4cc\	.	4ccc\
.	.	.	.	.	16f/	.	16dd\	.	.	.	.	.	.	.	.	.	.	.	.	.	.	.	.	.	.	.
8E-\	.	.	8e-\	.	16g/	.	16ee-\	.	8E-\	-nem	8g\	-nem	8e-\	-nem	8cc\J	-nem	.	.	.	.	.	.	.	.	.	.
.	.	.	.	.	16e-/JJ	.	16cc\JJ	.	.	.	.	.	.	.	.	.	.	.	.	.	.	.	.	.	.	.
!	!	!	!	!	!	!	!LO:LB:g=original	!	!	!	!	!	!	!	!	!	!	!	!	!	!	!	!	!	!	!
8F\	4	.	8f\	.	16d/LL	.	16b-\LL	.	2F\	nos-	2f\	nos-	(4d\	nos-	4b-\	nos-	.	.	4ff\	4ff\	4B-\	4d/	.	4b-\	.	4bb-\
.	.	.	.	.	16e-/	.	16cc\	.	.	.	.	.	.	.	.	.	.	.	.	.	.	.	.	.	.	.
8F\	.	.	8f\	.	16f/	.	16dd\	.	.	.	.	.	.	.	.	.	.	.	.	.	.	.	.	.	.	.
.	.	.	.	.	16d/JJ	.	16b-\JJ	.	.	.	.	.	.	.	.	.	.	.	.	.	.	.	.	.	.	.
8FF/	.	.	8F/	.	16c/LL	.	16an\LL	.	.	.	.	.	4c\)	.	4an\	.	.	.	4ff\	4ff\	4An\	4c/	.	4a\	.	4aan\
.	.	.	.	.	16d/	.	16b-\	.	.	.	.	.	.	.	.	.	.	.	.	.	.	.	.	.	.	.
8FF/J	.	.	8F/J	.	16e-/	.	16cc\	.	.	.	.	.	.	.	.	.	.	.	.	.	.	.	.	.	.	.
.	.	.	.	.	16c/JJ	.	16a\JJ	.	.	.	.	.	.	.	.	.	.	.	.	.	.	.	.	.	.	.
=40	=40	=40	=40	=40	=40	=40	=40	=40	=40	=40	=40	=40	=40	=40	=40	=40	=40	=40	=40	=40	=40	=40	=40	=40	=40	=40
!LO:TX:t=P:problem:mixed beam	!	!	!LO:TX:t=P:problem:mixed beam	!	!	!	!	!	!	!	!	!	!	!	!	!	!	!	!	!	!	!	!	!	!	!
8BB-/L	8	.	8B-/L	.	8d/	.	8b-\	.	4BB-/	-tra(m)	4f\	-tram	4d\	-tram	4b-\	-tram	2.ryy	2.ryy	4b-/	4ff\	4B-\	4d/	.	4b-\	.	4bb-\
16B-\L	.	.	16b-\L	.	4d/	.	4b-\	.	.	.	.	.	.	.	.	.	.	.	.	.	.	.	.	.	.	.
16An\JJ	.	.	16an\JJ	.	.	.	.	.	.	.	.	.	.	.	.	.	.	.	.	.	.	.	.	.	.	.
16B-\LL	.	.	16b-\LL	.	.	.	.	.	4r	.	4r	.	4r	.	4r	.	.	.	4b-/	4ff\	4B-\	4d/	.	4b-\	.	4bb-\
16c\	.	.	16cc\	.	.	.	.	.	.	.	.	.	.	.	.	.	.	.	.	.	.	.	.	.	.	.
16d\	.	.	16dd\	.	4d/	.	4b-\	.	.	.	.	.	.	.	.	.	.	.	.	.	.	.	.	.	.	.
16c\JJ	.	.	16cc\JJ	.	.	.	.	.	.	.	.	.	.	.	.	.	.	.	.	.	.	.	.	.	.	.
16B-\LL	.	.	16b-\LL	.	.	.	.	.	4B-\	qvi	4d\	qui	4a-X\	qui	4ff\	qui	.	.	8r	8r	8r	8r	.	8r	.	8r
16F\	.	.	16f\	.	.	.	.	.	.	.	.	.	.	.	.	.	.	.	.	.	.	.	.	.	.	.
16D\	.	.	16d\	.	8d/	.	8b-\	.	.	.	.	.	.	.	.	.	.	.	8b-/	8ff\	8A-\	8b-\	.	8cc\	.	8bb-\
16F\JJ	.	.	16f\JJ	.	.	.	.	.	.	.	.	.	.	.	.	.	.	.	.	.	.	.	.	.	.	.
!	!	!	!	!	!	!	!	!	!LO:LB:g=original	!	!	!	!	!	!	!	!	!	!	!	!	!LO:LB:g=original	!	!	!	!
=41	=41	=41	=41	=41	=41	=41	=41	=41	=41	=41	=41	=41	=41	=41	=41	=41	=41	=41	=41	=41	=41	=41	=41	=41	=41	=41
!LO:TX:t=P:problem:takt zapisany repetycją	!	!	!	!	!	!	!	!	!	!	!	!	!	!	!	!	!	!	!	!	!	!	!	!	!	!
!LO:TX:t=P:problem:mixed beam	!	!	!LO:TX:t=P:problem:mixed beam	!	!	!	!	!	!	!	!	!	!	!	!	!	!	!	!	!	!	!	!	!	!	!
8BB-/Lyy	8	.	8B-/L	.	8f 8B-/	.	8b-\	.	4B-\	se-	4d\	se-	4a-\	se-	4ff\	se-	2.ryy	2.ryy	4B-/	4ff\	4d\	4b-\	.	4dd\	.	4ddd\
16B-\Lyy	.	.	16b-\L	.	4f 4B-/	.	4b-\	.	.	.	.	.	.	.	.	.	.	.	.	.	.	.	.	.	.	.
16An\JJyy	.	.	16an\JJ	.	.	.	.	.	.	.	.	.	.	.	.	.	.	.	.	.	.	.	.	.	.	.
16B-\LLyy	.	.	16b-\LL	.	.	.	.	.	4B-\	-des	4d\	-des	4a-\	-des	4ff\	-des	.	.	4B-/	4ff\	4d\	4b-\	.	4dd\	.	4ddd\
16c\yy	.	.	16cc\	.	.	.	.	.	.	.	.	.	.	.	.	.	.	.	.	.	.	.	.	.	.	.
16d\yy	.	.	16dd\	.	4f 4B-/	.	4b-\	.	.	.	.	.	.	.	.	.	.	.	.	.	.	.	.	.	.	.
16c\JJyy	.	.	16cc\JJ	.	.	.	.	.	.	.	.	.	.	.	.	.	.	.	.	.	.	.	.	.	.	.
*	*	*	*	*	*	*	*	*	*	*	*	*	*	*ij	*	*	*	*	*	*	*	*	*	*	*	*
!	!	!	!	!	!	!	!	!	!	!	!	!	!LO:TX:t=P:problem:trzy nuty zapisane repetycją	!	!	!	!	!	!	!	!	!	!	!	!	!
16B-\LLyy	.	.	16b-\LL	.	.	.	.	.	8r	.	8r	.	4a-X\yy	qui	8r	.	.	.	8r	8r	8r	8r	.	8r	.	8r
16F\yy	.	.	16f\	.	.	.	.	.	.	.	.	.	.	.	.	.	.	.	.	.	.	.	.	.	.	.
16D\yy	.	.	16d\	.	8f 8B-/	.	8b-\	.	8B-\	qui	8d\	qui	.	.	8ff\	qui	.	.	8B-/	8ff\	8d\	8dd\	.	8ff\	.	8ddd\
16F\JJyy	.	.	16f\JJ	.	.	.	.	.	.	.	.	.	.	.	.	.	.	.	.	.	.	.	.	.	.	.
!LO:LB:g=original	!	!	!	!	!	!	!	!	!	!	!	!	!	!	!	!	!	!	!LO:LB:g=original	!	!	!	!	!	!	!
=42	=42	=42	=42	=42	=42	=42	=42	=42	=42	=42	=42	=42	=42	=42	=42	=42	=42	=42	=42	=42	=42	=42	=42	=42	=42	=42
!	!	!	!LO:TX:t=P:problem:takt zapisany repetycją	!	!	!	!	!	!	!	!	!	!	!	!	!	!	!	!	!	!	!	!	!	!	!
!LO:TX:t=P:problem:mixed beam	!	!	!LO:TX:t=P:problem:mixed beam	!	!	!	!	!	!	!	!	!	!	!	!	!	!	!	!	!	!	!	!	!	!	!
.	6	.	.	.	.	.	.	.	.	.	.	.	.	.	.	.	.	.	.	.	.	.	.	.	.	.
8BB-/L	7	.	8B-/Lyy	.	8a-X 8B-/	.	8b-\	.	4B-\	se-	4d\	se-	4a-\yy	se-	4ff\	se-	2.ryy	2.ryy	4B-/	4ff\	4f\	4dd\	.	4ff\	.	4ddd\
16B-\L	.	.	16b-\Lyy	.	4a- 4B-/	.	4b-\	.	.	.	.	.	.	.	.	.	.	.	.	.	.	.	.	.	.	.
16An\JJ	.	.	16an\JJyy	.	.	.	.	.	.	.	.	.	.	.	.	.	.	.	.	.	.	.	.	.	.	.
16B-\LL	.	.	16b-\LLyy	.	.	.	.	.	4B-\	-des	4d\	-des	4a-\yy	-des	4ff\	-des	.	.	4B-/	4ff\	4f\	4dd\	.	4ff\	.	4ddd\
*	*	*	*	*	*	*	*	*	*	*	*	*	*	*Xij	*	*	*	*	*	*	*	*	*	*	*	*
16c\	.	.	16cc\yy	.	.	.	.	.	.	.	.	.	.	.	.	.	.	.	.	.	.	.	.	.	.	.
16d\	.	.	16dd\yy	.	4a- 4B-/	.	4b-\	.	.	.	.	.	.	.	.	.	.	.	.	.	.	.	.	.	.	.
16c\JJ	.	.	16cc\JJyy	.	.	.	.	.	.	.	.	.	.	.	.	.	.	.	.	.	.	.	.	.	.	.
16B-\LL	.	.	16b-\LLyy	.	.	.	.	.	4r	.	4r	.	4r	.	4r	.	.	.	8r	8r	8r	8r	.	8r	.	8r
16F\	.	.	16f\yy	.	.	.	.	.	.	.	.	.	.	.	.	.	.	.	.	.	.	.	.	.	.	.
16D\	.	.	16d\yy	.	8a- 8B-/	.	8b-\	.	.	.	.	.	.	.	.	.	.	.	8e- 8B-/	8ff\	8f\	8dd\	.	8ff\	.	8ddd\
16F\JJ	.	.	16f\JJyy	.	.	.	.	.	.	.	.	.	.	.	.	.	.	.	.	.	.	.	.	.	.	.
!	!	!	!	!	!LO:LB:g=original	!	!	!	!	!	!	!	!LO:PB:g=original	!	!	!	!	!	!	!	!	!	!	!LO:LB:g=original	!	!
=43	=43	=43	=43	=43	=43	=43	=43	=43	=43	=43	=43	=43	=43	=43	=43	=43	=43	=43	=43	=43	=43	=43	=43	=43	=43	=43
*	*	*	*	*	*	*	*tremolo	*	*	*	*	*	*	*	*	*	*	*	*	*	*	*	*	*	*	*
4BB-/	6	.	4B-/	.	4a- 4B-/	.	8b-\L	.	4r	.	4r	.	4r	.	4r	.	2.ryy	2.ryy	4B-/	4ff\	4f\	4dd\	.	4ff\	.	4ddd\
.	7	.	.	.	.	.	8b-\	.	.	.	.	.	.	.	.	.	.	.	.	.	.	.	.	.	.	.
4r	.	.	4r	.	4r	.	8b-\	.	4r	.	4r	.	4r	.	4r	.	.	.	4r	4r	4r	8r	.	8r	.	4r
.	.	.	.	.	.	.	8b-\	.	.	.	.	.	.	.	.	.	.	.	.	.	.	8dd\L	.	8ff\L	.	.
!	!	!	!	!	!	!	!	!	!	!	!	!	!	!	!	!	!	!	!	!	!	!	!LO:DY:t=p.	!	!	!
4r	.	.	4r	.	4r	.	8b-\	.	8r	.	4e-\	qui	8r	.	8r	.	.	.	4r	4r	8r	8ee-\	p	8gg\	.	4r
*	*	*	*	*	*	*	*	*	*	*ij	*	*	*	*	*	*	*	*	*	*	*	*	*	*	*	*
.	.	.	.	.	.	.	8b-\J	.	8E-\	qui	.	.	8g\	qui	8b-\	qui	.	.	.	.	8B-\	8ff\J	.	8aa-X\J	.	.
*	*	*	*	*	*	*	*Xtremolo	*	*	*	*	*	*	*	*	*	*	*	*	*	*	*	*	*	*	*
!	!	!	!LO:LB:g=original	!	!	!	!	!	!	!	!	!	!	!	!	!	!	!	!	!	!	!	!	!	!	!
=44	=44	=44	=44	=44	=44	=44	=44	=44	=44	=44	=44	=44	=44	=44	=44	=44	=44	=44	=44	=44	=44	=44	=44	=44	=44	=44
!	!	!	!	!	!	!	!	!	!	!	!	!	!	!	!	!	!	!	!	!	!	!	!	!	!	!LO:TX:a:t=2.
4E-\	3	.	4e-\	.	4g 4B-/	.	8.b-/L	.	4E-\	se-	4e-\	se-	4g\	se-	8.b-\L	se-	2.ryy	2.ryy	4g/	4ee-\	8.B-\L	4ee-\	.	8.bb-\L	.	1.r
.	.	.	.	.	.	.	16g/Jk	.	.	.	.	.	.	.	16g\Jk	.	.	.	.	.	16G\Jk	.	.	16gg\Jk	.	.
4E-\	3	.	4E-/	.	8r	.	4e-/	.	4E-\	-des	4e-\	-des	4g\	-des	4e-/	-des	.	.	8r	8r	4E-\	8r	.	4ee-\	.	.
.	.	.	.	.	8gL 8B-/	.	.	.	.	.	.	.	.	.	.	.	.	.	8g/L	8ee-\L	.	8ee-\L	.	.	.	.
8r	.	.	8r	.	8g 8B-/	.	8r	.	8r	.	8r	.	8r	.	8r	.	.	.	8g/	8ee-\	8r	8ee-\	.	8r	.	.
*	*	*	*	*	*	*	*	*	*	*	*	*	*	*ij	*	*	*	*	*	*	*	*	*	*	*	*
8E-\	3	.	8e-\	.	8gJ 8B-/	.	8g/	.	8E-\	qui	8e-\	qui	8g\	qui	8g/	qui	.	.	8g/J	8ee-\J	8G\	8ee-\J	.	8gg\	.	.
!	!	!	!	!	!	!	!	!	!	!	!	!	!	!	!	!	!	!	!	!LO:LB:g=original	!	!	!	!	!	!
=45	=45	=45	=45	=45	=45	=45	=45	=45	=45	=45	=45	=45	=45	=45	=45	=45	=45	=45	=45	=45	=45	=45	=45	=45	=45	=45
4BB-/	7	.	4b-\	.	4a- 4B-/	.	8.b-/L	.	4B-\	se-	4f\	se-	4a-\	se-	8.b-\L	se-	2.ryy	2.ryy	4b-/	4ff\	8.B-\L	4ff\	.	8.bb-\L	.	.
.	.	.	.	.	.	.	16a-X/Jk	.	.	.	.	.	.	.	16a-\Jk	.	.	.	.	.	16G\Jk	.	.	16aa-\Jk	.	.
4BB-/	7	.	4B-/	.	8r	.	4f/	.	4BB-/	-des	4f\	-des	4a-\	-des	4f/	-des	.	.	8r	8r	4F\	8r	.	4ff\	.	.
*	*	*	*	*	*	*	*	*	*	*Xij	*	*	*	*Xij	*	*	*	*	*	*	*	*	*	*	*	*
.	.	.	.	.	8a-L 8B-/	.	.	.	.	.	.	.	.	.	.	.	.	.	8b-/L	8ff\L	.	8ff\L	.	.	.	.
!	!	!	!	!	!	!	!LO:LB:g=original	!	!	!	!	!	!	!	!	!	!	!	!	!	!	!	!	!	!	!
8r	.	.	8r	.	8a- 8B-/	.	8r	.	8r	.	8r	.	8r	.	8r	.	.	.	8b-/	8ff\	8r	8ff\	.	8r	.	.
8BB-/	7	.	8B-/	.	8a-J 8B-/	.	8a-/	.	8BB-/	ad	8f\	ad	8a-\	ad	8a-/	ad	.	.	8b-/J	8ff\J	8A-\	8ff\J	.	8aa-\	.	.
!	!	!	!	!	!	!	!	!	!	!	!LO:LB:g=original	!	!	!	!	!	!	!	!	!	!LO:LB:g=original	!LO:LB:g=original	!	!	!	!
=46	=46	=46	=46	=46	=46	=46	=46	=46	=46	=46	=46	=46	=46	=46	=46	=46	=46	=46	=46	=46	=46	=46	=46	=46	=46	=46
*	*	*	*tremolo	*	*tremolo	*	*	*	*	*	*	*	*	*	*	*	*	*	*	*	*	*	*	*	*	*
4E-\	3	.	8E-/L	.	8G/L	.	8.g/L	.	4E-\	dex-	4e-\	dex-	4g\	des-	4b-\	dex-	2.ryy	2.ryy	2ee-\	2gg\	8.G\L	4b-\	.	8.gg\L	.	4r
.	.	.	8G/	.	8B-/	.	.	.	.	.	.	.	.	.	.	.	.	.	.	.	.	.	.	.	.	.
!	!	!	!	!	!	!	!	!	!	!	!	!	!	!	!	!	!	!	!	!	!	!	!	!LO:TX:t=f	!	!
.	.	.	.	.	.	.	16e-/Jk	.	.	.	.	.	.	.	.	.	.	.	.	.	16E-\Jk	.	.	16ff\Jk	.	.
4GG/	8	.	8E-/	.	8G/	.	8B-/L	.	4G\	-te-	4e-\	-te-	4b-\	-te-	4gg\	-te-	.	.	.	.	8BB-/L	8b-\L	.	8b-\L	.	8bb-\L
.	.	.	8G/J	.	8B-/J	.	8B-/	.	.	.	.	.	.	.	.	.	.	.	.	.	8BB-/	8b-\	.	8b-\	.	8bb-\
*	*	*	*Xtremolo	*	*Xtremolo	*	*	*	*	*	*	*	*	*	*	*	*	*	*	*	*	*	*	*	*	*
4BB-/	5	.	8F/L	.	8An/L	.	8c/	.	4B-\	-ra(m)	4d\	-ram	4a-\	-ram	4ff\	-ram	.	.	4b-/	4ff\	8C/	8a\	.	8cc\	.	8ccc\
.	.	.	8D/J	.	8A-/J	.	8d/J	.	.	.	.	.	.	.	.	.	.	.	.	.	8D/J	8a-X\J	.	8dd\J	.	8ddd\J
!	!	!	!	!	!	!	!	!	!	!	!	!	!	!	!LO:LB:g=original	!	!	!	!	!	!	!	!	!	!	!
=47	=47	=47	=47	=47	=47	=47	=47	=47	=47	=47	=47	=47	=47	=47	=47	=47	=47	=47	=47	=47	=47	=47	=47	=47	=47	=47
4E-\	8	.	4E-/	.	4G/	.	16e-/LL	.	4E-\	pa-	4e-\	pa-	4g\	pa-	4ee-\	pa-	2.ryy	2.ryy	4g/	4ee-\	4E-\	4g/	.	4ee-\	.	4eee-\
.	.	.	.	.	.	.	16d/	.	.	.	.	.	.	.	.	.	.	.	.	.	.	.	.	.	.	.
.	.	.	.	.	.	.	16f/	.	.	.	.	.	.	.	.	.	.	.	.	.	.	.	.	.	.	.
.	.	.	.	.	.	.	16e-/JJ	.	.	.	.	.	.	.	.	.	.	.	.	.	.	.	.	.	.	.
4E-\	8	.	4E-/	.	16e-/LL	.	16g/LL	.	4E-\	-tris	4e-\	-tris	4g\	-tris	4ee-\	-tris	.	.	4g/	4ee-\	4E-\	4g/	.	4ee-\	.	4r
.	.	.	.	.	16d/	.	16f/	.	.	.	.	.	.	.	.	.	.	.	.	.	.	.	.	.	.	.
.	.	.	.	.	16f/	.	16a-/	.	.	.	.	.	.	.	.	.	.	.	.	.	.	.	.	.	.	.
.	.	.	.	.	16e-/JJ	.	16g/JJ	.	.	.	.	.	.	.	.	.	.	.	.	.	.	.	.	.	.	.
4r	.	.	4r	.	16g/LL	.	16b-\LL	.	8r	.	8r	.	8r	.	8r	.	.	.	4r	4r	8r	8r	.	8r	.	4r
.	.	.	.	.	16f/	.	16an\	.	.	.	.	.	.	.	.	.	.	.	.	.	.	.	.	.	.	.
*	*	*	*	*	*	*	*	*	*	*	*	*	*	*ij	*	*	*	*	*	*	*	*	*	*	*	*
.	.	.	.	.	16a-/	.	16cc\	.	8E-\	ad	8e-\	ad	8g\	ad	8b-\	ad	.	.	.	.	8F\	8a-/	.	8ff\	.	.
.	.	.	.	.	16g/JJ	.	16b-\JJ	.	.	.	.	.	.	.	.	.	.	.	.	.	.	.	.	.	.	.
!	!	!	!	!	!LO:LB:g=original	!	!	!	!LO:LB:g=original	!	!	!	!	!	!	!	!	!	!	!	!	!	!	!	!	!
=48	=48	=48	=48	=48	=48	=48	=48	=48	=48	=48	=48	=48	=48	=48	=48	=48	=48	=48	=48	=48	=48	=48	=48	=48	=48	=48
*	*	*	*tremolo	*	*tremolo	*	*	*	*	*	*	*	*	*	*	*	*	*	*	*	*	*	*	*	*	*
4E-\	3	.	8E-/L	.	8G/L	.	8.g/L	.	4E-\	dex-	4e-\	dex-	4g\	des-	4b-\	dex-	2.ryy	2.ryy	2ee-\	2gg\	8.G\L	4b-\	.	8.gg\L	.	4r
.	.	.	8G/	.	8B-/	.	.	.	.	.	.	.	.	.	.	.	.	.	.	.	.	.	.	.	.	.
.	.	.	.	.	.	.	16e-/Jk	.	.	.	.	.	.	.	.	.	.	.	.	.	16E-\Jk	.	.	16ee-\Jk	.	.
4GG/	8	.	8E-/	.	8G/	.	8B-/L	.	4G\	-te-	4e-\	-te-	4b-\	-te-	4gg\	-te-	.	.	.	.	8BB-/L	8b-\L	.	8b-\L	.	8bb-\L
.	.	.	8G/J	.	8B-/J	.	8B-/	.	.	.	.	.	.	.	.	.	.	.	.	.	8BB-/	8b-\	.	8b-\	.	8bb-\
*	*	*	*Xtremolo	*	*	*	*	*	*	*	*	*	*	*	*	*	*	*	*	*	*	*	*	*	*	*
4BB-/	5	.	8F/L	.	8An/L	.	8c/	.	4B-\	-ram	4d\	-ram	4a-\	-ram	4ff\	-ra(m)	.	.	4b-/	4ff\	8C/	8a\	.	8cc\	.	8ccc\
.	.	.	8D/J	.	8A-/J	.	8d/J	.	.	.	.	.	.	.	.	.	.	.	.	.	8D/J	8a-X\J	.	8dd\J	.	8ddd\J
*	*	*	*	*	*Xtremolo	*	*	*	*	*	*	*	*	*	*	*	*	*	*	*	*	*	*	*	*	*
=49	=49	=49	=49	=49	=49	=49	=49	=49	=49	=49	=49	=49	=49	=49	=49	=49	=49	=49	=49	=49	=49	=49	=49	=49	=49	=49
4E-\	10	.	4B-/	.	4A-/	.	4d/	.	4B-\	pa-	4B-\	pa-	4a-\	pa-	4ff\	pa-	2.ryy	2.ryy	4b-/	4ff\	4D\	4a-/	.	4dd\	.	4ddd\
4EE-/	8	.	4e-\	.	4G/	.	4e-/	.	4E-\	-tris.	4B-\	-tris	4g\	-tris	4ee-\	-tris	.	.	4g/	4ee-\	4E-\	4g/	.	4ee-\	.	4eee-\
*	*	*	*	*	*	*	*	*	*	*	*	*	*	*Xij	*	*	*	*	*	*	*	*	*	*	*	*
4r	.	.	4r	.	4r	.	4r	.	4r	.	4r	.	4r	.	4r	.	.	.	4r	4r	4r	4r	.	4r	.	4r
==	==	==	==	==	==	==	==	==	==	==	==	==	==	==	==	==	==	==	==	==	==	==	==	==	==	==
*-	*-	*-	*-	*-	*-	*-	*-	*-	*-	*-	*-	*-	*-	*-	*-	*-	*-	*-	*-	*-	*-	*-	*-	*-	*-	*-
!!!system-decoration: [(g1)][(g2)]<s8>[(g3)][(g4)]s16
!!!RDF**kern: | = vertical stroke
!!!ENC: Solarz Mateusz
!!!END: 2020-10-14
!!!ENC: Marta Lawrence
!!!END: 2021-01-17
